; generated by Slic3r 1.3.0-dev on 2018-01-19 at 17:51:21

; external perimeters extrusion width = 0.42mm (5.35mm^3/s)
; perimeters extrusion width = 0.42mm (8.02mm^3/s)
; infill extrusion width = 0.42mm (8.02mm^3/s)
; solid infill extrusion width = 0.42mm (8.02mm^3/s)
; top infill extrusion width = 0.42mm (6.68mm^3/s)

M107
M190 S100 ; set bed temperature and wait for it to be reached
M104 S210 ; set temperature
G28 ; home all axes
G1 Z5 F5000 ; lift nozzle

; Filament gcode

M109 S210 ; set temperature and wait for it to be reached
G21 ; set units to millimeters
G90 ; use absolute coordinates
M82 ; use absolute distances for extrusion
G92 E0
G1 Z5.200 F4500.000
G1 E-1.00000 F2400.00000
G92 E0
G1 X83.295 Y55.696 F4500.000
G1 E1.00000 F2400.00000
G1 F2700
G1 X84.583 Y53.727 E1.07011
G1 X86.560 Y51.750 E1.15337
G1 X88.324 Y50.546 E1.21700
G1 X90.629 Y50.065 E1.28712
G1 X109.367 Y50.065 E1.84526
G1 X111.466 Y50.461 E1.90889
G1 X113.432 Y51.746 E1.97885
G1 X115.412 Y53.723 E2.06219
G1 X116.617 Y55.486 E2.12582
G1 X117.101 Y57.795 E2.19608
G1 X117.101 Y142.201 E4.71023
G1 X116.704 Y144.300 E4.77386
G1 X115.415 Y146.270 E4.84398
G1 X113.435 Y148.250 E4.92739
G1 X111.671 Y149.454 E4.99102
G1 X109.367 Y149.935 E5.06113
G1 X90.629 Y149.935 E5.61927
G1 X88.530 Y149.539 E5.68290
G1 X86.556 Y148.246 E5.75317
G1 X84.580 Y146.266 E5.83650
G1 X83.377 Y144.500 E5.90013
G1 X82.898 Y142.201 E5.97009
G1 X82.898 Y57.795 E8.48425
G1 X83.283 Y55.755 E8.54609
G1 X83.671 Y55.769 F4500.000
G1 F2700
G1 X84.850 Y53.993 E8.60958
G1 X86.826 Y52.017 E8.69284
G1 X88.539 Y50.864 E8.75433
G1 X90.629 Y50.442 E8.81783
G1 X109.367 Y50.442 E9.37597
G1 X111.393 Y50.838 E9.43746
G1 X113.165 Y52.013 E9.50082
G1 X115.145 Y53.990 E9.58415
G1 X116.299 Y55.702 E9.64564
G1 X116.724 Y57.795 E9.70927
G1 X116.724 Y142.201 E12.22343
G1 X116.327 Y144.227 E12.28492
G1 X115.149 Y146.003 E12.34841
G1 X113.169 Y147.983 E12.43182
G1 X111.456 Y149.135 E12.49331
G1 X109.367 Y149.558 E12.55681
G1 X90.629 Y149.558 E13.11495
G1 X88.603 Y149.162 E13.17644
G1 X86.823 Y147.980 E13.24008
G1 X84.847 Y146.000 E13.32341
G1 X83.696 Y144.286 E13.38490
G1 X83.275 Y142.201 E13.44825
G1 X83.275 Y57.795 E15.96240
G1 X83.660 Y55.828 E16.02211
G1 E15.02211 F2400.00000
G92 E0
G1 X109.157 Y104.054 F4500.000
G1 E1.00000 F2400.00000
G1 F1800
G1 X109.157 Y139.171 E2.04601
G1 X111.137 Y139.171 E2.10499
G1 X111.137 Y141.991 E2.18898
G1 X109.157 Y141.991 E2.24796
G1 X109.157 Y143.971 E2.30694
G1 X90.839 Y143.971 E2.85257
G1 X90.839 Y141.991 E2.91155
G1 X88.862 Y141.991 E2.97042
G1 X88.862 Y139.171 E3.05442
G1 X90.839 Y139.171 E3.11329
G1 X90.839 Y104.054 E4.15930
G1 X90.239 Y104.054 E4.17717
G1 X90.239 Y104.234 E4.18253
G1 X88.862 Y104.234 E4.22353
G1 X88.862 Y101.054 E4.31825
G1 X90.239 Y101.054 E4.35925
G1 X90.239 Y101.234 E4.36461
G1 X90.839 Y101.234 E4.38248
G1 X90.839 Y98.654 E4.45933
G1 X88.862 Y98.654 E4.51820
G1 X88.862 Y95.834 E4.60220
G1 X90.839 Y95.834 E4.66107
G1 X90.839 Y60.825 E5.70386
G1 X88.862 Y60.825 E5.76273
G1 X88.862 Y58.005 E5.84673
G1 X90.839 Y58.005 E5.90560
G1 X90.839 Y56.029 E5.96447
G1 X109.157 Y56.029 E6.51010
G1 X109.157 Y58.005 E6.56898
G1 X111.137 Y58.005 E6.62795
G1 X111.137 Y60.825 E6.71195
G1 X109.157 Y60.825 E6.77093
G1 X109.157 Y95.834 E7.81372
G1 X111.137 Y95.834 E7.87270
G1 X111.137 Y98.654 E7.95670
G1 X109.157 Y98.654 E8.01568
G1 X109.157 Y101.234 E8.09252
G1 X109.757 Y101.234 E8.11040
G1 X109.757 Y101.054 E8.11576
G1 X111.137 Y101.054 E8.15686
G1 X111.137 Y104.234 E8.25158
G1 X109.757 Y104.234 E8.29269
G1 X109.757 Y104.054 E8.29805
G1 X109.217 Y104.054 E8.31414
G1 X108.759 Y104.015 F4500.000
G1 X108.780 Y103.677 F4500.000
G1 F2700
G1 X108.780 Y139.548 E9.38261
G1 X110.760 Y139.548 E9.44159
G1 X110.760 Y141.614 E9.50312
G1 X108.780 Y141.614 E9.56210
G1 X108.780 Y143.594 E9.62108
G1 X91.216 Y143.594 E10.14424
G1 X91.216 Y141.614 E10.20322
G1 X89.239 Y141.614 E10.26209
G1 X89.239 Y139.548 E10.32363
G1 X91.216 Y139.548 E10.38250
G1 X91.216 Y103.677 E11.45097
G1 X89.862 Y103.677 E11.49130
G1 X89.862 Y103.857 E11.49667
G1 X89.239 Y103.857 E11.51520
G1 X89.239 Y101.431 E11.58746
G1 X89.862 Y101.431 E11.60599
G1 X89.862 Y101.611 E11.61135
G1 X91.216 Y101.611 E11.65169
G1 X91.216 Y98.277 E11.75100
G1 X89.239 Y98.277 E11.80987
G1 X89.239 Y96.211 E11.87141
G1 X91.216 Y96.211 E11.93028
G1 X91.216 Y60.448 E12.99553
G1 X89.239 Y60.448 E13.05441
G1 X89.239 Y58.382 E13.11594
G1 X91.216 Y58.382 E13.17481
G1 X91.216 Y56.406 E13.23368
G1 X108.780 Y56.406 E13.75685
G1 X108.780 Y58.382 E13.81572
G1 X110.760 Y58.382 E13.87470
G1 X110.760 Y60.448 E13.93623
G1 X108.780 Y60.448 E13.99521
G1 X108.780 Y96.211 E15.06047
G1 X110.760 Y96.211 E15.11944
G1 X110.760 Y98.277 E15.18098
G1 X108.780 Y98.277 E15.23996
G1 X108.780 Y101.611 E15.33927
G1 X110.134 Y101.611 E15.37961
G1 X110.134 Y101.431 E15.38497
G1 X110.760 Y101.431 E15.40361
G1 X110.760 Y103.857 E15.47587
G1 X110.134 Y103.857 E15.49451
G1 X110.134 Y103.677 E15.49987
G1 X108.840 Y103.677 E15.53842
G1 X108.403 Y103.300 F4500.000
G1 F2700
G1 X108.403 Y139.925 E16.62936
G1 X110.383 Y139.925 E16.68833
G1 X110.383 Y141.237 E16.72740
G1 X108.403 Y141.237 E16.78638
G1 X108.403 Y143.217 E16.84536
G1 X91.593 Y143.217 E17.34606
G1 X91.593 Y141.237 E17.40504
G1 X89.616 Y141.237 E17.46391
G1 X89.616 Y139.925 E17.50298
G1 X91.593 Y139.925 E17.56185
G1 X91.593 Y103.300 E18.65279
G1 X89.616 Y103.300 E18.71166
G1 X89.616 Y101.988 E18.75073
G1 X91.593 Y101.988 E18.80960
G1 X91.593 Y97.900 E18.93138
G1 X89.616 Y97.900 E18.99025
G1 X89.616 Y96.588 E19.02932
G1 X91.593 Y96.588 E19.08819
G1 X91.593 Y60.071 E20.17591
G1 X89.616 Y60.071 E20.23478
G1 X89.616 Y58.759 E20.27385
G1 X91.593 Y58.759 E20.33272
G1 X91.593 Y56.783 E20.39159
G1 X108.403 Y56.783 E20.89229
G1 X108.403 Y58.759 E20.95117
G1 X110.383 Y58.759 E21.01014
G1 X110.383 Y60.071 E21.04921
G1 X108.403 Y60.071 E21.10819
G1 X108.403 Y96.588 E22.19591
G1 X110.383 Y96.588 E22.25489
G1 X110.383 Y97.900 E22.29396
G1 X108.403 Y97.900 E22.35294
G1 X108.403 Y101.988 E22.47471
G1 X110.383 Y101.988 E22.53369
G1 X110.383 Y103.300 E22.57276
G1 X108.463 Y103.300 E22.62995
G1 X108.025 Y102.923 F4500.000
G1 F2700
G1 X108.025 Y140.302 E23.74335
G1 X110.005 Y140.302 E23.80233
G1 X110.005 Y140.860 E23.81894
G1 X108.025 Y140.860 E23.87791
G1 X108.025 Y142.840 E23.93689
G1 X91.970 Y142.840 E24.41513
G1 X91.970 Y140.860 E24.47411
G1 X89.994 Y140.860 E24.53298
G1 X89.994 Y140.302 E24.54959
G1 X91.970 Y140.302 E24.60846
G1 X91.970 Y102.923 E25.72186
G1 X89.994 Y102.923 E25.78073
G1 X89.994 Y102.365 E25.79733
G1 X91.970 Y102.365 E25.85620
G1 X91.970 Y97.523 E26.00044
G1 X89.994 Y97.523 E26.05932
G1 X89.994 Y96.965 E26.07592
G1 X91.970 Y96.965 E26.13479
G1 X91.970 Y59.694 E27.24498
G1 X89.994 Y59.694 E27.30385
G1 X89.994 Y59.137 E27.32045
G1 X91.970 Y59.137 E27.37932
G1 X91.970 Y57.160 E27.43820
G1 X108.025 Y57.160 E27.91644
G1 X108.025 Y59.137 E27.97531
G1 X110.005 Y59.137 E28.03429
G1 X110.005 Y59.694 E28.05089
G1 X108.025 Y59.694 E28.10987
G1 X108.025 Y96.965 E29.22005
G1 X110.005 Y96.965 E29.27903
G1 X110.005 Y97.523 E29.29564
G1 X108.025 Y97.523 E29.35462
G1 X108.025 Y102.365 E29.49886
G1 X110.005 Y102.365 E29.55783
G1 X110.005 Y102.923 E29.57444
G1 X108.085 Y102.923 E29.63163
G1 E28.63163 F2400.00000
G92 E0
G1 X107.648 Y142.463 F4500.000
G1 E1.00000 F2400.00000
G1 F2700
G1 X92.347 Y142.463 E1.45578
G1 X92.347 Y57.537 E3.98541
G1 X107.648 Y57.537 E4.44119
G1 X107.648 Y142.403 E6.96904
G1 X107.271 Y142.086 F4500.000
G1 F2700
G1 X92.724 Y142.086 E7.40235
G1 X92.724 Y57.914 E9.90953
G1 X107.271 Y57.914 E10.34284
G1 X107.271 Y142.026 E12.84823
G1 X106.854 Y141.748 F4500.000
G1 F2700
G1 X106.934 Y141.668 E12.85161
G1 X106.934 Y141.134 E12.86754
G1 X106.320 Y141.748 E12.89346
G1 X105.786 Y141.748 E12.90939
G1 X106.934 Y140.600 E12.95785
G1 X106.934 Y140.066 E12.97378
G1 X105.252 Y141.748 E13.04477
G1 X104.718 Y141.748 E13.06070
G1 X106.934 Y139.532 E13.15423
G1 X106.934 Y138.998 E13.17016
G1 X104.183 Y141.748 E13.28622
G1 X103.649 Y141.748 E13.30215
G1 X106.934 Y138.464 E13.44075
G1 X106.934 Y137.929 E13.45668
G1 X103.115 Y141.748 E13.61781
G1 X102.581 Y141.748 E13.63375
G1 X106.934 Y137.395 E13.81741
G1 X106.934 Y136.861 E13.83334
G1 X102.047 Y141.748 E14.03954
G1 X101.513 Y141.748 E14.05548
G1 X106.934 Y136.327 E14.28421
G1 X106.934 Y135.793 E14.30015
G1 X100.979 Y141.748 E14.55142
G1 X100.445 Y141.748 E14.56735
G1 X106.934 Y135.259 E14.84116
G1 X106.934 Y134.725 E14.85709
G1 X99.911 Y141.748 E15.15344
G1 X99.376 Y141.748 E15.16937
G1 X106.934 Y134.191 E15.48825
G1 X106.934 Y133.657 E15.50418
G1 X98.842 Y141.748 E15.84559
G1 X98.308 Y141.748 E15.86153
G1 X106.934 Y133.122 E16.22548
G1 X106.934 Y132.588 E16.24141
G1 X97.774 Y141.748 E16.62789
G1 X97.240 Y141.748 E16.64383
G1 X106.934 Y132.054 E17.05285
G1 X106.934 Y131.520 E17.06878
G1 X96.706 Y141.748 E17.50034
G1 X96.172 Y141.748 E17.51627
G1 X106.934 Y130.986 E17.97036
G1 X106.934 Y130.452 E17.98630
G1 X95.638 Y141.748 E18.46292
G1 X95.103 Y141.748 E18.47886
G1 X106.934 Y129.918 E18.97802
G1 X106.934 Y129.384 E18.99395
G1 X94.569 Y141.748 E19.51565
G1 X94.035 Y141.748 E19.53158
G1 X106.934 Y128.849 E20.07581
G1 X106.934 Y128.315 E20.09175
G1 X93.501 Y141.748 E20.65851
G1 X93.061 Y141.748 E20.67164
G1 X93.061 Y141.654 E20.67445
G1 X106.934 Y127.781 E21.25978
G1 X106.934 Y127.247 E21.27571
G1 X93.061 Y141.120 E21.86104
G1 X93.061 Y140.586 E21.87697
G1 X106.934 Y126.713 E22.46230
G1 X106.934 Y126.179 E22.47824
G1 X93.061 Y140.052 E23.06357
G1 X93.061 Y139.518 E23.07950
G1 X106.934 Y125.645 E23.66483
G1 X106.934 Y125.111 E23.68076
G1 X93.061 Y138.984 E24.26609
G1 X93.061 Y138.450 E24.28203
G1 X106.934 Y124.576 E24.86736
G1 X106.934 Y124.042 E24.88329
G1 X93.061 Y137.915 E25.46862
G1 X93.061 Y137.381 E25.48455
G1 X106.934 Y123.508 E26.06988
G1 X106.934 Y122.974 E26.08582
G1 X93.061 Y136.847 E26.67115
G1 X93.061 Y136.313 E26.68708
G1 X106.934 Y122.440 E27.27241
G1 X106.934 Y121.906 E27.28834
G1 X93.061 Y135.779 E27.87367
G1 X93.061 Y135.245 E27.88961
G1 X106.934 Y121.372 E28.47494
G1 X106.934 Y120.838 E28.49087
G1 X93.061 Y134.711 E29.07620
G1 X93.061 Y134.177 E29.09213
G1 X106.934 Y120.304 E29.67746
G1 X106.934 Y119.769 E29.69340
G1 X93.061 Y133.642 E30.27873
G1 X93.061 Y133.108 E30.29466
G1 X106.934 Y119.235 E30.87999
G1 X106.934 Y118.701 E30.89592
G1 X93.061 Y132.574 E31.48125
G1 X93.061 Y132.040 E31.49719
G1 X106.934 Y118.167 E32.08252
G1 X106.934 Y117.633 E32.09845
G1 X93.061 Y131.506 E32.68378
G1 X93.061 Y130.972 E32.69972
G1 X106.934 Y117.099 E33.28504
G1 X106.934 Y116.565 E33.30098
G1 X93.061 Y130.438 E33.88631
G1 X93.061 Y129.904 E33.90224
G1 X106.934 Y116.031 E34.48757
G1 X106.934 Y115.496 E34.50351
G1 X93.061 Y129.370 E35.08883
G1 X93.061 Y128.835 E35.10477
G1 X106.934 Y114.962 E35.69010
G1 X106.934 Y114.428 E35.70603
G1 X93.061 Y128.301 E36.29136
G1 X93.061 Y127.767 E36.30730
G1 X106.934 Y113.894 E36.89262
G1 X106.934 Y113.360 E36.90856
G1 X93.061 Y127.233 E37.49389
G1 X93.061 Y126.699 E37.50982
G1 X106.934 Y112.826 E38.09515
G1 X106.934 Y112.292 E38.11109
G1 X93.061 Y126.165 E38.69641
G1 X93.061 Y125.631 E38.71235
G1 X106.934 Y111.758 E39.29768
G1 X106.934 Y111.223 E39.31361
G1 X93.061 Y125.097 E39.89894
G1 X93.061 Y124.562 E39.91488
G1 X106.934 Y110.689 E40.50020
G1 X106.934 Y110.155 E40.51614
G1 X93.061 Y124.028 E41.10147
G1 X93.061 Y123.494 E41.11740
G1 X106.934 Y109.621 E41.70273
G1 X106.934 Y109.087 E41.71867
G1 X93.061 Y122.960 E42.30399
G1 X93.061 Y122.426 E42.31993
G1 X106.934 Y108.553 E42.90526
G1 X106.934 Y108.019 E42.92119
G1 X93.061 Y121.892 E43.50652
G1 X93.061 Y121.358 E43.52246
G1 X106.934 Y107.485 E44.10778
G1 X106.934 Y106.951 E44.12372
G1 X93.061 Y120.824 E44.70905
G1 X93.061 Y120.289 E44.72498
G1 X106.934 Y106.416 E45.31031
G1 X106.934 Y105.882 E45.32625
G1 X93.061 Y119.755 E45.91157
G1 X93.061 Y119.221 E45.92751
G1 X106.934 Y105.348 E46.51284
G1 X106.934 Y104.814 E46.52877
G1 X93.061 Y118.687 E47.11410
G1 X93.061 Y118.153 E47.13004
G1 X106.934 Y104.280 E47.71536
G1 X106.934 Y103.746 E47.73130
G1 X93.061 Y117.619 E48.31663
G1 X93.061 Y117.085 E48.33256
G1 X106.934 Y103.212 E48.91789
G1 X106.934 Y102.678 E48.93383
G1 X93.061 Y116.551 E49.51915
G1 X93.061 Y116.017 E49.53509
G1 X106.934 Y102.143 E50.12042
G1 X106.934 Y101.609 E50.13635
G1 X93.061 Y115.482 E50.72168
G1 X93.061 Y114.948 E50.73762
G1 X106.934 Y101.075 E51.32294
G1 X106.934 Y100.541 E51.33888
G1 X93.061 Y114.414 E51.92421
G1 X93.061 Y113.880 E51.94014
G1 X106.934 Y100.007 E52.52547
G1 X106.934 Y99.473 E52.54141
G1 X93.061 Y113.346 E53.12673
G1 X93.061 Y112.812 E53.14267
G1 X106.934 Y98.939 E53.72800
G1 X106.934 Y98.405 E53.74393
G1 X93.061 Y112.278 E54.32926
G1 X93.061 Y111.744 E54.34520
G1 X106.934 Y97.870 E54.93052
G1 X106.934 Y97.336 E54.94646
G1 X93.061 Y111.209 E55.53179
G1 X93.061 Y110.675 E55.54772
G1 X106.934 Y96.802 E56.13305
G1 X106.934 Y96.268 E56.14899
G1 X93.061 Y110.141 E56.73431
G1 X93.061 Y109.607 E56.75025
G1 X106.934 Y95.734 E57.33558
G1 X106.934 Y95.200 E57.35151
G1 X93.061 Y109.073 E57.93684
G1 X93.061 Y108.539 E57.95278
G1 X106.934 Y94.666 E58.53810
G1 X106.934 Y94.132 E58.55404
G1 X93.061 Y108.005 E59.13937
G1 X93.061 Y107.471 E59.15530
G1 X106.934 Y93.598 E59.74063
G1 X106.934 Y93.063 E59.75657
G1 X93.061 Y106.936 E60.34189
G1 X93.061 Y106.402 E60.35783
G1 X106.934 Y92.529 E60.94316
G1 X106.934 Y91.995 E60.95909
G1 X93.061 Y105.868 E61.54442
G1 X93.061 Y105.334 E61.56036
G1 X106.934 Y91.461 E62.14568
G1 X106.934 Y90.927 E62.16162
G1 X93.061 Y104.800 E62.74695
G1 X93.061 Y104.266 E62.76288
G1 X106.934 Y90.393 E63.34821
G1 X106.934 Y89.859 E63.36415
G1 X93.061 Y103.732 E63.94948
G1 X93.061 Y103.198 E63.96541
G1 X106.934 Y89.325 E64.55074
G1 X106.934 Y88.790 E64.56667
G1 X93.061 Y102.664 E65.15200
G1 X93.061 Y102.129 E65.16794
G1 X106.934 Y88.256 E65.75327
G1 X106.934 Y87.722 E65.76920
G1 X93.061 Y101.595 E66.35453
G1 X93.061 Y101.061 E66.37046
G1 X106.934 Y87.188 E66.95579
G1 X106.934 Y86.654 E66.97173
G1 X93.061 Y100.527 E67.55706
G1 X93.061 Y99.993 E67.57299
G1 X106.934 Y86.120 E68.15832
G1 X106.934 Y85.586 E68.17425
G1 X93.061 Y99.459 E68.75958
G1 X93.061 Y98.925 E68.77552
G1 X106.934 Y85.052 E69.36085
G1 X106.934 Y84.517 E69.37678
G1 X93.061 Y98.391 E69.96211
G1 X93.061 Y97.856 E69.97804
G1 X106.934 Y83.983 E70.56337
G1 X106.934 Y83.449 E70.57931
G1 X93.061 Y97.322 E71.16464
G1 X93.061 Y96.788 E71.18057
G1 X106.934 Y82.915 E71.76590
G1 X106.934 Y82.381 E71.78183
G1 X93.061 Y96.254 E72.36716
G1 X93.061 Y95.720 E72.38310
G1 X106.934 Y81.847 E72.96843
G1 X106.934 Y81.313 E72.98436
G1 X93.061 Y95.186 E73.56969
G1 X93.061 Y94.652 E73.58563
G1 X106.934 Y80.779 E74.17095
G1 X106.934 Y80.245 E74.18689
G1 X93.061 Y94.118 E74.77222
G1 X93.061 Y93.583 E74.78815
G1 X106.934 Y79.710 E75.37348
G1 X106.934 Y79.176 E75.38942
G1 X93.061 Y93.049 E75.97474
G1 X93.061 Y92.515 E75.99068
G1 X106.934 Y78.642 E76.57601
G1 X106.934 Y78.108 E76.59194
G1 X93.061 Y91.981 E77.17727
G1 X93.061 Y91.447 E77.19321
G1 X106.934 Y77.574 E77.77853
G1 X106.934 Y77.040 E77.79447
G1 X93.061 Y90.913 E78.37980
G1 X93.061 Y90.379 E78.39573
G1 X106.934 Y76.506 E78.98106
G1 X106.934 Y75.972 E78.99700
G1 X93.061 Y89.845 E79.58232
G1 X93.061 Y89.311 E79.59826
G1 X106.934 Y75.437 E80.18359
G1 X106.934 Y74.903 E80.19952
G1 X93.061 Y88.776 E80.78485
G1 X93.061 Y88.242 E80.80079
G1 X106.934 Y74.369 E81.38611
G1 X106.934 Y73.835 E81.40205
G1 X93.061 Y87.708 E81.98738
G1 X93.061 Y87.174 E82.00331
G1 X106.934 Y73.301 E82.58864
G1 X106.934 Y72.767 E82.60458
G1 X93.061 Y86.640 E83.18990
G1 X93.061 Y86.106 E83.20584
G1 X106.934 Y72.233 E83.79117
G1 X106.934 Y71.699 E83.80710
G1 X93.061 Y85.572 E84.39243
G1 X93.061 Y85.038 E84.40837
G1 X106.934 Y71.164 E84.99369
G1 X106.934 Y70.630 E85.00963
G1 X93.061 Y84.503 E85.59496
G1 X93.061 Y83.969 E85.61089
G1 X106.934 Y70.096 E86.19622
G1 X106.934 Y69.562 E86.21216
G1 X93.061 Y83.435 E86.79748
G1 X93.061 Y82.901 E86.81342
G1 X106.934 Y69.028 E87.39875
G1 X106.934 Y68.494 E87.41468
G1 X93.061 Y82.367 E88.00001
G1 X93.061 Y81.833 E88.01595
