; generated by Slic3r 1.3.0-dev on 2018-01-19 at 01:25:01

; external perimeters extrusion width = 0.42mm (1.59mm^3/s)
; perimeters extrusion width = 0.42mm (2.39mm^3/s)
; infill extrusion width = 0.42mm (2.39mm^3/s)
; solid infill extrusion width = 0.42mm (2.39mm^3/s)
; top infill extrusion width = 0.42mm (1.99mm^3/s)

M107
M190 S100 ; set bed temperature and wait for it to be reached
M104 S210 ; set temperature
G28 ; home all axes
G1 Z5 F5000 ; lift nozzle

; Filament gcode

M109 S210 ; set temperature and wait for it to be reached
G21 ; set units to millimeters
G90 ; use absolute coordinates
M82 ; use absolute distances for extrusion
G92 E0
G1 Z5.050 F4500.000
G1 E-1.00000 F2400.00000
G92 E0
G1 X38.040 Y12.870 F4500.000
G1 E1.00000 F2400.00000
G1 F2700
G1 X39.180 Y10.961 E1.01797
G1 X40.917 Y9.574 E1.03594
G1 X43.871 Y8.829 E1.06056
G1 X156.129 Y8.829 E1.96786
G1 X158.316 Y9.226 E1.98583
G1 X160.225 Y10.366 E2.00380
G1 X161.612 Y12.103 E2.02177
G1 X162.357 Y15.057 E2.04639
G1 X162.357 Y121.750 E2.90872
G1 X161.960 Y123.937 E2.92668
G1 X161.234 Y125.317 E2.93928
G1 X117.086 Y188.510 E3.56233
G1 X115.508 Y190.076 E3.58029
G1 X113.481 Y190.987 E3.59826
G1 X111.981 Y191.171 E3.61047
G1 X88.019 Y191.171 E3.80414
G1 X85.832 Y190.774 E3.82211
G1 X83.923 Y189.634 E3.84007
G1 X82.914 Y188.510 E3.85229
G1 X38.766 Y125.317 E4.47533
G1 X37.838 Y123.296 E4.49330
G1 X37.643 Y121.750 E4.50590
G1 X37.643 Y15.057 E5.36823
G1 X38.035 Y12.899 E5.38595
G1 X38.449 Y12.946 F4500.000
G1 F2700
G1 X39.585 Y11.122 E5.40331
G1 X41.305 Y9.835 E5.42068
G1 X43.871 Y9.238 E5.44197
G1 X156.129 Y9.238 E6.34928
G1 X158.240 Y9.635 E6.36664
G1 X160.064 Y10.771 E6.38401
G1 X161.351 Y12.491 E6.40137
G1 X161.948 Y15.057 E6.42266
G1 X161.948 Y121.750 E7.28499
G1 X161.551 Y123.861 E7.30235
G1 X160.899 Y125.082 E7.31354
G1 X116.751 Y188.275 E7.93659
G1 X115.216 Y189.779 E7.95395
G1 X113.241 Y190.623 E7.97131
G1 X111.981 Y190.762 E7.98156
G1 X88.019 Y190.762 E8.17523
G1 X85.908 Y190.365 E8.19259
G1 X84.084 Y189.229 E8.20995
G1 X83.249 Y188.275 E8.22020
G1 X39.101 Y125.082 E8.84324
G1 X38.217 Y123.124 E8.86061
G1 X38.052 Y121.750 E8.87179
G1 X38.052 Y15.057 E9.73412
G1 X38.444 Y12.975 E9.75124
G1 X38.858 Y13.025 F4500.000
G1 F2700
G1 X39.989 Y11.290 E9.76798
G1 X41.689 Y10.108 E9.78471
G1 X43.871 Y9.648 E9.80274
G1 X156.129 Y9.648 E10.71005
G1 X158.161 Y10.044 E10.72678
G1 X159.896 Y11.175 E10.74352
G1 X161.078 Y12.875 E10.76025
G1 X161.538 Y15.057 E10.77828
G1 X161.538 Y121.750 E11.64061
G1 X161.142 Y123.782 E11.65734
G1 X160.563 Y124.848 E11.66714
G1 X116.415 Y188.041 E12.29019
G1 X114.926 Y189.480 E12.30693
G1 X111.981 Y190.352 E12.33175
G1 X88.019 Y190.352 E12.52542
G1 X85.987 Y189.956 E12.54215
G1 X83.585 Y188.041 E12.56698
G1 X39.437 Y124.848 E13.19003
G1 X38.598 Y122.955 E13.20676
G1 X38.462 Y121.750 E13.21656
G1 X38.462 Y15.057 E14.07889
G1 X38.852 Y13.054 E14.09539
G1 E13.09539 F2400.00000
G92 E0
G1 X44.081 Y15.267 F4500.000
G1 E1.00000 F2400.00000
G1 F1800
G1 X155.919 Y15.267 E1.90391
G1 X155.919 Y121.665 E2.76386
G1 X111.771 Y167.647 E3.27907
G1 X111.771 Y184.733 E3.41716
G1 X88.229 Y184.733 E3.60743
G1 X88.229 Y167.647 E3.74553
G1 X44.081 Y121.665 E4.26074
G1 X44.081 Y15.297 E5.12044
G1 X44.263 Y15.350 F4500.000
G1 X44.490 Y15.676 F4500.000
G1 F2700
G1 X155.510 Y15.676 E6.01774
G1 X155.510 Y121.501 E6.87305
G1 X111.361 Y167.482 E7.38825
G1 X111.361 Y184.324 E7.52437
G1 X88.639 Y184.324 E7.70803
G1 X88.639 Y167.482 E7.84415
G1 X44.490 Y121.501 E8.35935
G1 X44.490 Y15.706 E9.21442
G1 X44.900 Y16.086 F4500.000
G1 F2700
G1 X155.100 Y16.086 E10.10510
G1 X155.100 Y121.336 E10.95577
G1 X110.952 Y167.317 E11.47098
G1 X110.952 Y183.914 E11.60512
G1 X89.048 Y183.914 E11.78216
G1 X89.048 Y167.317 E11.91630
G1 X44.900 Y121.336 E12.43151
G1 X44.900 Y16.116 E13.28193
G1 X45.309 Y16.495 F4500.000
G1 F2700
G1 X154.691 Y16.495 E14.16600
G1 X154.691 Y121.171 E15.01203
G1 X110.543 Y167.153 E15.52724
G1 X110.543 Y183.505 E15.65940
G1 X89.457 Y183.505 E15.82983
G1 X89.457 Y167.153 E15.96199
G1 X45.309 Y121.171 E16.47720
G1 X45.309 Y16.525 E17.32299
G1 X45.718 Y16.904 F4500.000
G1 F2700
G1 X154.282 Y16.904 E18.20044
G1 X154.282 Y121.007 E19.04183
G1 X110.134 Y166.988 E19.55703
G1 X110.134 Y183.096 E19.68722
G1 X89.866 Y183.096 E19.85103
G1 X89.866 Y166.988 E19.98122
G1 X45.718 Y121.007 E20.49643
G1 X45.718 Y16.934 E21.33758
G1 X46.127 Y17.313 F4500.000
G1 F2700
G1 X153.873 Y17.313 E22.20841
G1 X153.873 Y120.842 E23.04516
G1 X109.724 Y166.823 E23.56037
G1 X109.724 Y182.687 E23.68858
G1 X90.276 Y182.687 E23.84577
G1 X90.276 Y166.823 E23.97399
G1 X46.127 Y120.842 E24.48919
G1 X46.127 Y17.343 E25.32570
G1 X46.580 Y17.679 F4500.000
G1 F2700
G1 X46.493 Y17.766 E25.32670
G1 X46.493 Y18.346 E25.33140
G1 X47.160 Y17.679 E25.33904
G1 X47.740 Y17.679 E25.34373
G1 X46.493 Y18.926 E25.35801
G1 X46.493 Y19.506 E25.36271
G1 X48.320 Y17.679 E25.38363
G1 X48.900 Y17.679 E25.38833
G1 X46.493 Y20.086 E25.41589
G1 X46.493 Y20.666 E25.42059
G1 X49.480 Y17.679 E25.45480
G1 X50.060 Y17.679 E25.45949
G1 X46.493 Y21.246 E25.50034
G1 X46.493 Y21.826 E25.50504
G1 X50.640 Y17.679 E25.55253
G1 X51.220 Y17.679 E25.55722
G1 X46.493 Y22.406 E25.61135
G1 X46.493 Y22.986 E25.61605
G1 X51.800 Y17.679 E25.67682
G1 X52.380 Y17.679 E25.68152
G1 X46.493 Y23.566 E25.74893
G1 X46.493 Y24.146 E25.75363
G1 X52.960 Y17.679 E25.82769
G1 X53.539 Y17.679 E25.83238
G1 X46.493 Y24.725 E25.91308
G1 X46.493 Y25.305 E25.91778
G1 X54.119 Y17.679 E26.00512
G1 X54.699 Y17.679 E26.00981
G1 X46.493 Y25.885 E26.10379
G1 X46.493 Y26.465 E26.10849
G1 X55.279 Y17.679 E26.20911
G1 X55.859 Y17.679 E26.21381
G1 X46.493 Y27.045 E26.32107
G1 X46.493 Y27.625 E26.32577
G1 X56.439 Y17.679 E26.43968
G1 X57.019 Y17.679 E26.44437
G1 X46.493 Y28.205 E26.56492
G1 X46.493 Y28.785 E26.56962
G1 X57.599 Y17.679 E26.69681
G1 X58.179 Y17.679 E26.70150
G1 X46.493 Y29.365 E26.83534
G1 X46.493 Y29.945 E26.84003
G1 X58.759 Y17.679 E26.98051
G1 X59.339 Y17.679 E26.98520
G1 X46.493 Y30.525 E27.13232
G1 X46.493 Y31.105 E27.13701
G1 X59.919 Y17.679 E27.29077
G1 X60.499 Y17.679 E27.29547
G1 X46.493 Y31.685 E27.45587
G1 X46.493 Y32.265 E27.46056
G1 X61.079 Y17.679 E27.62760
G1 X61.659 Y17.679 E27.63230
G1 X46.493 Y32.844 E27.80598
G1 X46.493 Y33.424 E27.81068
G1 X62.238 Y17.679 E27.99100
G1 X62.818 Y17.679 E27.99570
G1 X46.493 Y34.004 E28.18266
G1 X46.493 Y34.584 E28.18736
G1 X63.398 Y17.679 E28.38097
G1 X63.978 Y17.679 E28.38566
G1 X46.493 Y35.164 E28.58591
G1 X46.493 Y35.744 E28.59061
G1 X64.558 Y17.679 E28.79750
G1 X65.138 Y17.679 E28.80219
G1 X46.493 Y36.324 E29.01573
G1 X46.493 Y36.904 E29.02042
G1 X65.718 Y17.679 E29.24060
G1 X66.298 Y17.679 E29.24529
G1 X46.493 Y37.484 E29.47211
G1 X46.493 Y38.064 E29.47681
G1 X66.878 Y17.679 E29.71026
G1 X67.458 Y17.679 E29.71496
G1 X46.493 Y38.644 E29.95506
G1 X46.493 Y39.224 E29.95975
G1 X68.038 Y17.679 E30.20650
G1 X68.618 Y17.679 E30.21119
G1 X46.493 Y39.804 E30.46457
G1 X46.493 Y40.384 E30.46927
G1 X69.198 Y17.679 E30.72929
G1 X69.778 Y17.679 E30.73399
G1 X46.493 Y40.964 E31.00066
G1 X46.493 Y41.543 E31.00535
G1 X70.357 Y17.679 E31.27866
G1 X70.937 Y17.679 E31.28336
G1 X46.493 Y42.123 E31.56331
G1 X46.493 Y42.703 E31.56800
G1 X71.517 Y17.679 E31.85459
G1 X72.097 Y17.679 E31.85929
G1 X46.493 Y43.283 E32.15252
G1 X46.493 Y43.863 E32.15722
G1 X72.677 Y17.679 E32.45709
G1 X73.257 Y17.679 E32.46179
G1 X46.493 Y44.443 E32.76831
G1 X46.493 Y45.023 E32.77300
G1 X73.837 Y17.679 E33.08616
G1 X74.417 Y17.679 E33.09086
G1 X46.493 Y45.603 E33.41066
G1 X46.493 Y46.183 E33.41535
G1 X74.997 Y17.679 E33.74179
G1 X75.577 Y17.679 E33.74649
G1 X46.493 Y46.763 E34.07957
G1 X46.493 Y47.343 E34.08427
G1 X76.157 Y17.679 E34.42400
G1 X76.737 Y17.679 E34.42869
G1 X46.493 Y47.923 E34.77506
G1 X46.493 Y48.503 E34.77975
G1 X77.317 Y17.679 E35.13276
G1 X77.897 Y17.679 E35.13746
G1 X46.493 Y49.083 E35.49711
G1 X46.493 Y49.662 E35.50181
G1 X78.477 Y17.679 E35.86810
G1 X79.056 Y17.679 E35.87279
G1 X46.493 Y50.242 E36.24573
G1 X46.493 Y50.822 E36.25042
G1 X79.636 Y17.679 E36.63000
G1 X80.216 Y17.679 E36.63469
G1 X46.493 Y51.402 E37.02091
G1 X46.493 Y51.982 E37.02561
G1 X80.796 Y17.679 E37.41847
G1 X81.376 Y17.679 E37.42316
G1 X46.493 Y52.562 E37.82266
G1 X46.493 Y53.142 E37.82736
G1 X81.956 Y17.679 E38.23350
G1 X82.536 Y17.679 E38.23820
G1 X46.493 Y53.722 E38.65098
G1 X46.493 Y54.302 E38.65568
G1 X83.116 Y17.679 E39.07510
G1 X83.696 Y17.679 E39.07980
G1 X46.493 Y54.882 E39.50587
G1 X46.493 Y55.462 E39.51056
G1 X84.276 Y17.679 E39.94327
G1 X84.856 Y17.679 E39.94797
G1 X46.493 Y56.042 E40.38732
G1 X46.493 Y56.622 E40.39201
G1 X85.436 Y17.679 E40.83801
G1 X86.016 Y17.679 E40.84270
G1 X46.493 Y57.202 E41.29534
G1 X46.493 Y57.782 E41.30003
G1 X86.596 Y17.679 E41.75931
G1 X87.175 Y17.679 E41.76400
G1 X46.493 Y58.361 E42.22992
G1 X46.493 Y58.941 E42.23462
G1 X87.755 Y17.679 E42.70718
G1 X88.335 Y17.679 E42.71187
G1 X46.493 Y59.521 E43.19107
G1 X46.493 Y60.101 E43.19577
G1 X88.915 Y17.679 E43.68161
G1 X89.495 Y17.679 E43.68631
G1 X46.493 Y60.681 E44.17879
G1 X46.493 Y61.261 E44.18349
G1 X90.075 Y17.679 E44.68262
G1 X90.655 Y17.679 E44.68731
G1 X46.493 Y61.841 E45.19308
G1 X46.493 Y62.421 E45.19778
G1 X91.235 Y17.679 E45.71018
G1 X91.815 Y17.679 E45.71488
G1 X46.493 Y63.001 E46.23393
G1 X46.493 Y63.581 E46.23863
G1 X92.395 Y17.679 E46.76432
G1 X92.975 Y17.679 E46.76902
G1 X46.493 Y64.161 E47.30135
G1 X46.493 Y64.741 E47.30605
G1 X93.555 Y17.679 E47.84502
G1 X94.135 Y17.679 E47.84972
G1 X46.493 Y65.321 E48.39534
G1 X46.493 Y65.901 E48.40003
G1 X94.715 Y17.679 E48.95229
G1 X95.294 Y17.679 E48.95699
G1 X46.493 Y66.480 E49.51589
G1 X46.493 Y67.060 E49.52059
G1 X95.874 Y17.679 E50.08613
G1 X96.454 Y17.679 E50.09083
G1 X46.493 Y67.640 E50.66301
G1 X46.493 Y68.220 E50.66771
G1 X97.034 Y17.679 E51.24653
G1 X97.614 Y17.679 E51.25123
G1 X46.493 Y68.800 E51.83670
G1 X46.493 Y69.380 E51.84140
G1 X98.194 Y17.679 E52.43351
G1 X98.774 Y17.679 E52.43820
G1 X46.493 Y69.960 E53.03695
G1 X46.493 Y70.540 E53.04165
G1 X99.354 Y17.679 E53.64704
G1 X99.934 Y17.679 E53.65174
G1 X46.493 Y71.120 E54.26377
G1 X46.493 Y71.700 E54.26847
G1 X100.514 Y17.679 E54.88715
G1 X101.094 Y17.679 E54.89184
G1 X46.493 Y72.280 E55.51716
G1 X46.493 Y72.860 E55.52186
G1 X101.674 Y17.679 E56.15382
G1 X102.254 Y17.679 E56.15851
G1 X46.493 Y73.440 E56.79712
G1 X46.493 Y74.020 E56.80181
G1 X102.834 Y17.679 E57.44706
G1 X103.414 Y17.679 E57.45175
G1 X46.493 Y74.600 E58.10364
G1 X46.493 Y75.179 E58.10833
G1 X103.993 Y17.679 E58.76686
G1 X104.573 Y17.679 E58.77156
G1 X46.493 Y75.759 E59.43673
G1 X46.493 Y76.339 E59.44142
G1 X105.153 Y17.679 E60.11323
G1 X105.733 Y17.679 E60.11793
G1 X46.493 Y76.919 E60.79638
G1 X46.493 Y77.499 E60.80108
G1 X106.313 Y17.679 E61.48617
G1 X106.893 Y17.679 E61.49087
G1 X46.493 Y78.079 E62.18260
G1 X46.493 Y78.659 E62.18730
G1 X107.473 Y17.679 E62.88568
G1 X108.053 Y17.679 E62.89037
G1 X46.493 Y79.239 E63.59539
G1 X46.493 Y79.819 E63.60009
G1 X108.633 Y17.679 E64.31175
G1 X109.213 Y17.679 E64.31645
G1 X46.493 Y80.399 E65.03475
G1 X46.493 Y80.979 E65.03944
G1 X109.793 Y17.679 E65.76439
G1 X110.373 Y17.679 E65.76908
G1 X46.493 Y81.559 E66.50067
G1 X46.493 Y82.139 E66.50537
G1 X110.953 Y17.679 E67.24359
G1 X111.533 Y17.679 E67.24829
G1 X46.493 Y82.719 E67.99316
G1 X46.493 Y83.298 E67.99786
G1 X112.112 Y17.679 E68.74937
G1 X112.692 Y17.679 E68.75406
G1 X46.493 Y83.878 E69.51222
G1 X46.493 Y84.458 E69.51691
G1 X113.272 Y17.679 E70.28171
G1 X113.852 Y17.679 E70.28640
G1 X46.493 Y85.038 E71.05784
G1 X46.493 Y85.618 E71.06254
G1 X114.432 Y17.679 E71.84061
G1 X115.012 Y17.679 E71.84531
G1 X46.493 Y86.198 E72.63003
G1 X46.493 Y86.778 E72.63472
G1 X115.592 Y17.679 E73.42609
G1 X116.172 Y17.679 E73.43078
G1 X46.493 Y87.358 E74.22879
G1 X46.493 Y87.938 E74.23348
G1 X116.752 Y17.679 E75.03813
G1 X117.332 Y17.679 E75.04282
G1 X46.493 Y88.518 E75.85411
G1 X46.493 Y89.098 E75.85881
G1 X117.912 Y17.679 E76.67673
G1 X118.492 Y17.679 E76.68143
G1 X46.493 Y89.678 E77.50600
G1 X46.493 Y90.258 E77.51070
G1 X119.072 Y17.679 E78.34191
G1 X119.652 Y17.679 E78.34660
G1 X46.493 Y90.838 E79.18446
G1 X46.493 Y91.418 E79.18915
G1 X120.232 Y17.679 E80.03365
G1 X120.811 Y17.679 E80.03834
G1 X46.493 Y91.997 E80.88948
G1 X46.493 Y92.577 E80.89418
G1 X121.391 Y17.679 E81.75196
G1 X121.971 Y17.679 E81.75665
G1 X46.493 Y93.157 E82.62107
G1 X46.493 Y93.737 E82.62577
G1 X122.551 Y17.679 E83.49683
G1 X123.131 Y17.679 E83.50153
G1 X46.493 Y94.317 E84.37923
G1 X46.493 Y94.897 E84.38393
G1 X123.711 Y17.679 E85.26827
G1 X124.291 Y17.679 E85.27297
G1 X46.493 Y95.477 E86.16395
G1 X46.493 Y96.057 E86.16865
G1 X124.871 Y17.679 E87.06628
G1 X125.451 Y17.679 E87.07098
G1 X46.493 Y96.637 E87.97525
G1 X46.493 Y97.217 E87.97994
G1 X126.031 Y17.679 E88.89085
G1 X126.611 Y17.679 E88.89555
G1 X46.493 Y97.797 E89.81310
G1 X46.493 Y98.377 E89.81780
G1 X127.191 Y17.679 E90.74200
G1 X127.771 Y17.679 E90.74669
G1 X46.493 Y98.957 E91.67753
G1 X46.493 Y99.537 E91.68223
G1 X128.351 Y17.679 E92.61970
G1 X128.930 Y17.679 E92.62440
G1 X46.493 Y100.116 E93.56852
G1 X46.493 Y100.696 E93.57322
G1 X129.510 Y17.679 E94.52398
G1 X130.090 Y17.679 E94.52868
G1 X46.493 Y101.276 E95.48608
G1 X46.493 Y101.856 E95.49078
G1 X130.670 Y17.679 E96.45482
G1 X131.250 Y17.679 E96.45952
G1 X46.493 Y102.436 E97.43021
G1 X46.493 Y103.016 E97.43490
G1 X131.830 Y17.679 E98.41223
G1 X132.410 Y17.679 E98.41693
G1 X46.493 Y103.596 E99.40090
G1 X46.493 Y104.176 E99.40559
G1 X132.990 Y17.679 E100.39621
G1 X133.570 Y17.679 E100.40090
G1 X46.493 Y104.756 E101.39816
G1 X46.493 Y105.336 E101.40285
G1 X134.150 Y17.679 E102.40675
G1 X134.730 Y17.679 E102.41145
G1 X46.493 Y105.916 E103.42198
G1 X46.493 Y106.496 E103.42668
G1 X135.310 Y17.679 E104.44386
G1 X135.890 Y17.679 E104.44856
G1 X46.493 Y107.076 E105.47238
G1 X46.493 Y107.656 E105.47707
G1 X136.470 Y17.679 E106.50754
G1 X137.050 Y17.679 E106.51223
G1 X46.493 Y108.235 E107.54934
G1 X46.493 Y108.815 E107.55403
G1 X137.629 Y17.679 E108.59778
G1 X138.209 Y17.679 E108.60248
G1 X46.493 Y109.395 E109.65286
G1 X46.493 Y109.975 E109.65756
G1 X138.789 Y17.679 E110.71459
G1 X139.369 Y17.679 E110.71929
G1 X46.493 Y110.555 E111.78296
G1 X46.493 Y111.135 E111.78765
G1 X139.949 Y17.679 E112.85797
G1 X140.529 Y17.679 E112.86266
G1 X46.493 Y111.715 E113.93962
G1 X46.493 Y112.295 E113.94431
G1 X141.109 Y17.679 E115.02791
G1 X141.689 Y17.679 E115.03261
G1 X46.493 Y112.875 E116.12284
G1 X46.493 Y113.455 E116.12754
G1 X142.269 Y17.679 E117.22442
G1 X142.849 Y17.679 E117.22912
G1 X46.493 Y114.035 E118.33264
G1 X46.493 Y114.615 E118.33733
G1 X143.429 Y17.679 E119.44750
G1 X144.009 Y17.679 E119.45219
G1 X46.493 Y115.195 E120.56900
G1 X46.493 Y115.775 E120.57370
G1 X144.589 Y17.679 E121.69714
G1 X145.169 Y17.679 E121.70184
G1 X46.493 Y116.355 E122.83193
G1 X46.493 Y116.934 E122.83662
G1 X145.748 Y17.679 E123.97335
G1 X146.328 Y17.679 E123.97805
G1 X46.493 Y117.514 E125.12142
G1 X46.493 Y118.094 E125.12612
G1 X146.908 Y17.679 E126.27613
G1 X147.488 Y17.679 E126.28083
G1 X46.493 Y118.674 E127.43748
G1 X46.493 Y119.254 E127.44218
G1 X148.068 Y17.679 E128.60548
G1 X148.648 Y17.679 E128.61017
G1 X46.493 Y119.834 E129.78011
G1 X46.493 Y120.414 E129.78481
G1 X149.228 Y17.679 E130.96139
G1 X149.808 Y17.679 E130.96608
G1 X46.627 Y120.860 E132.14777
G1 X46.911 Y121.156 E132.15110
G1 X150.388 Y17.679 E133.33617
G1 X150.968 Y17.679 E133.34087
G1 X47.195 Y121.452 E134.52934
G1 X47.479 Y121.748 E134.53266
G1 X151.548 Y17.679 E135.72451
G1 X152.128 Y17.679 E135.72921
G1 X47.763 Y122.044 E136.92445
G1 X48.047 Y122.339 E136.92777
G1 X152.708 Y17.679 E138.12640
G1 X153.288 Y17.679 E138.13110
G1 X48.331 Y122.635 E139.33312
G1 X48.616 Y122.931 E139.33644
G1 X153.507 Y18.040 E140.53772
G1 X153.507 Y18.620 E140.54242
G1 X48.900 Y123.227 E141.74044
G1 X49.184 Y123.523 E141.74376
G1 X153.507 Y19.200 E142.93853
G1 X153.507 Y19.780 E142.94323
G1 X49.468 Y123.819 E144.13474
G1 X49.752 Y124.115 E144.13807
G1 X153.507 Y20.360 E145.32633
G1 X153.507 Y20.940 E145.33103
G1 X50.036 Y124.410 E146.51604
G1 X50.320 Y124.706 E146.51936
