; generated by Slic3r 1.3.0-dev on 2018-01-19 at 01:30:31

; external perimeters extrusion width = 0.42mm (1.59mm^3/s)
; perimeters extrusion width = 0.42mm (2.39mm^3/s)
; infill extrusion width = 0.42mm (2.39mm^3/s)
; solid infill extrusion width = 0.42mm (2.39mm^3/s)
; top infill extrusion width = 0.42mm (1.99mm^3/s)

M107
M190 S100 ; set bed temperature and wait for it to be reached
M104 S210 ; set temperature
G28 ; home all axes
G1 Z5 F5000 ; lift nozzle

; Filament gcode

M109 S210 ; set temperature and wait for it to be reached
G21 ; set units to millimeters
G90 ; use absolute coordinates
M82 ; use absolute distances for extrusion
G92 E0
G1 Z5.050 F4500.000
G1 E-1.00000 F2400.00000
G92 E0
G1 X38.040 Y12.870 F4500.000
G1 E1.00000 F2400.00000
G1 F2700
G1 X39.180 Y10.961 E1.01797
G1 X40.917 Y9.575 E1.03594
G1 X43.871 Y8.830 E1.06056
G1 X156.130 Y8.830 E1.96787
G1 X158.317 Y9.226 E1.98584
G1 X160.226 Y10.366 E2.00381
G1 X161.612 Y12.104 E2.02177
G1 X162.357 Y15.057 E2.04639
G1 X162.357 Y121.751 E2.90873
G1 X161.961 Y123.938 E2.92669
G1 X161.235 Y125.318 E2.93929
G1 X117.084 Y188.508 E3.56233
G1 X115.506 Y190.074 E3.58030
G1 X113.479 Y190.986 E3.59827
G1 X111.979 Y191.169 E3.61048
G1 X88.018 Y191.169 E3.80414
G1 X85.830 Y190.772 E3.82211
G1 X83.922 Y189.633 E3.84008
G1 X82.912 Y188.508 E3.85229
G1 X38.765 Y125.317 E4.47532
G1 X37.838 Y123.297 E4.49328
G1 X37.643 Y121.751 E4.50588
G1 X37.643 Y15.057 E5.36821
G1 X38.034 Y12.900 E5.38594
G1 X38.449 Y12.946 F4500.000
G1 F2700
G1 X39.584 Y11.123 E5.40330
G1 X41.304 Y9.836 E5.42066
G1 X43.871 Y9.239 E5.44196
G1 X156.130 Y9.239 E6.34927
G1 X158.241 Y9.635 E6.36664
G1 X160.064 Y10.771 E6.38400
G1 X161.352 Y12.491 E6.40136
G1 X161.948 Y15.057 E6.42266
G1 X161.948 Y121.751 E7.28499
G1 X161.552 Y123.862 E7.30235
G1 X160.899 Y125.083 E7.31354
G1 X116.749 Y188.274 E7.93658
G1 X115.215 Y189.778 E7.95394
G1 X113.239 Y190.622 E7.97131
G1 X111.979 Y190.760 E7.98155
G1 X88.018 Y190.760 E8.17522
G1 X85.906 Y190.363 E8.19258
G1 X84.083 Y189.228 E8.20994
G1 X83.248 Y188.274 E8.22019
G1 X39.101 Y125.083 E8.84321
G1 X38.217 Y123.125 E8.86058
G1 X38.052 Y121.751 E8.87176
G1 X38.052 Y15.057 E9.73410
G1 X38.443 Y12.976 E9.75122
G1 X38.858 Y13.025 F4500.000
G1 F2700
G1 X39.989 Y11.291 E9.76795
G1 X41.688 Y10.108 E9.78469
G1 X43.871 Y9.648 E9.80271
G1 X156.130 Y9.648 E10.71003
G1 X158.162 Y10.044 E10.72676
G1 X159.896 Y11.175 E10.74350
G1 X161.079 Y12.875 E10.76023
G1 X161.539 Y15.057 E10.77826
G1 X161.539 Y121.751 E11.64059
G1 X161.143 Y123.783 E11.65733
G1 X160.564 Y124.849 E11.66713
G1 X116.413 Y188.040 E12.29017
G1 X114.925 Y189.479 E12.30690
G1 X111.979 Y190.351 E12.33173
G1 X88.018 Y190.351 E12.52540
G1 X85.985 Y189.954 E12.54213
G1 X83.583 Y188.039 E12.56696
G1 X39.436 Y124.849 E13.18998
G1 X38.597 Y122.956 E13.20672
G1 X38.462 Y121.751 E13.21652
G1 X38.462 Y15.057 E14.07885
G1 X38.852 Y13.055 E14.09534
G1 E13.09534 F2400.00000
G92 E0
G1 X44.081 Y15.267 F4500.000
G1 E1.00000 F2400.00000
G1 F1800
G1 X155.920 Y15.267 E1.90392
G1 X155.920 Y121.666 E2.76387
G1 X111.769 Y167.645 E3.27907
G1 X111.769 Y184.731 E3.41717
G1 X88.228 Y184.731 E3.60744
G1 X88.228 Y167.645 E3.74554
G1 X44.081 Y121.666 E4.26072
G1 X44.081 Y15.297 E5.12043
G1 X44.263 Y15.351 F4500.000
G1 X44.490 Y15.677 F4500.000
G1 F2700
G1 X155.510 Y15.677 E6.01773
G1 X155.510 Y121.501 E6.87305
G1 X111.360 Y167.481 E7.38825
G1 X111.360 Y184.322 E7.52437
G1 X88.637 Y184.322 E7.70803
G1 X88.637 Y167.481 E7.84414
G1 X44.490 Y121.501 E8.35933
G1 X44.490 Y15.707 E9.21440
G1 X44.899 Y16.086 F4500.000
G1 F2700
G1 X155.101 Y16.086 E10.10509
G1 X155.101 Y121.337 E10.95576
G1 X110.951 Y167.316 E11.47096
G1 X110.951 Y183.913 E11.60511
G1 X89.046 Y183.913 E11.78215
G1 X89.046 Y167.316 E11.91629
G1 X44.899 Y121.337 E12.43147
G1 X44.899 Y16.116 E13.28190
G1 X45.309 Y16.495 F4500.000
G1 F2700
G1 X154.692 Y16.495 E14.16598
G1 X154.692 Y121.172 E15.01201
G1 X110.541 Y167.151 E15.52721
G1 X110.541 Y183.504 E15.65938
G1 X89.455 Y183.504 E15.82980
G1 X89.455 Y167.151 E15.96197
G1 X45.309 Y121.172 E16.47715
G1 X45.309 Y16.525 E17.32294
G1 X45.718 Y16.905 F4500.000
G1 F2700
G1 X154.283 Y16.905 E18.20040
G1 X154.283 Y121.007 E19.04180
G1 X110.132 Y166.987 E19.55700
G1 X110.132 Y183.094 E19.68719
G1 X89.865 Y183.094 E19.85100
G1 X89.865 Y166.987 E19.98119
G1 X45.718 Y121.007 E20.49637
G1 X45.718 Y16.935 E21.33752
G1 X46.127 Y17.314 F4500.000
G1 F2700
G1 X153.873 Y17.314 E22.20837
G1 X153.873 Y120.843 E23.04512
G1 X109.723 Y166.822 E23.56033
G1 X109.723 Y182.685 E23.68854
G1 X90.274 Y182.685 E23.84573
G1 X90.274 Y166.822 E23.97394
G1 X46.127 Y120.843 E24.48913
G1 X46.127 Y17.344 E25.32564
G1 X46.580 Y17.680 F4500.000
G1 F2700
G1 X46.493 Y17.767 E25.32664
G1 X46.493 Y18.347 E25.33134
G1 X47.160 Y17.680 E25.33898
G1 X47.740 Y17.680 E25.34367
G1 X46.493 Y18.927 E25.35796
G1 X46.493 Y19.507 E25.36265
G1 X48.320 Y17.680 E25.38358
G1 X48.900 Y17.680 E25.38827
G1 X46.493 Y20.087 E25.41584
G1 X46.493 Y20.667 E25.42053
G1 X49.480 Y17.680 E25.45474
G1 X50.060 Y17.680 E25.45944
G1 X46.493 Y21.246 E25.50028
G1 X46.493 Y21.826 E25.50498
G1 X50.640 Y17.680 E25.55247
G1 X51.220 Y17.680 E25.55717
G1 X46.493 Y22.406 E25.61130
G1 X46.493 Y22.986 E25.61599
G1 X51.800 Y17.680 E25.67677
G1 X52.379 Y17.680 E25.68146
G1 X46.493 Y23.566 E25.74888
G1 X46.493 Y24.146 E25.75357
G1 X52.959 Y17.680 E25.82763
G1 X53.539 Y17.680 E25.83233
G1 X46.493 Y24.726 E25.91302
G1 X46.493 Y25.306 E25.91772
G1 X54.119 Y17.680 E26.00506
G1 X54.699 Y17.680 E26.00976
G1 X46.493 Y25.886 E26.10374
G1 X46.493 Y26.466 E26.10843
G1 X55.279 Y17.680 E26.20905
G1 X55.859 Y17.680 E26.21375
G1 X46.493 Y27.046 E26.32101
G1 X46.493 Y27.626 E26.32571
G1 X56.439 Y17.680 E26.43962
G1 X57.019 Y17.680 E26.44431
G1 X46.493 Y28.205 E26.56486
G1 X46.493 Y28.785 E26.56955
G1 X57.599 Y17.680 E26.69674
G1 X58.179 Y17.680 E26.70144
G1 X46.493 Y29.365 E26.83527
G1 X46.493 Y29.945 E26.83996
G1 X58.759 Y17.680 E26.98044
G1 X59.339 Y17.680 E26.98513
G1 X46.493 Y30.525 E27.13224
G1 X46.493 Y31.105 E27.13694
G1 X59.918 Y17.680 E27.29069
G1 X60.498 Y17.680 E27.29539
G1 X46.493 Y31.685 E27.45579
G1 X46.493 Y32.265 E27.46048
G1 X61.078 Y17.680 E27.62752
G1 X61.658 Y17.680 E27.63222
G1 X46.493 Y32.845 E27.80590
G1 X46.493 Y33.425 E27.81059
G1 X62.238 Y17.680 E27.99091
G1 X62.818 Y17.680 E27.99561
G1 X46.493 Y34.005 E28.18257
G1 X46.493 Y34.585 E28.18727
G1 X63.398 Y17.680 E28.38087
G1 X63.978 Y17.680 E28.38557
G1 X46.493 Y35.165 E28.58581
G1 X46.493 Y35.744 E28.59051
G1 X64.558 Y17.680 E28.79739
G1 X65.138 Y17.680 E28.80209
G1 X46.493 Y36.324 E29.01562
G1 X46.493 Y36.904 E29.02031
G1 X65.718 Y17.680 E29.24048
G1 X66.298 Y17.680 E29.24518
G1 X46.493 Y37.484 E29.47199
G1 X46.493 Y38.064 E29.47669
G1 X66.878 Y17.680 E29.71014
G1 X67.457 Y17.680 E29.71483
G1 X46.493 Y38.644 E29.95493
G1 X46.493 Y39.224 E29.95962
G1 X68.037 Y17.680 E30.20636
G1 X68.617 Y17.680 E30.21106
G1 X46.493 Y39.804 E30.46443
G1 X46.493 Y40.384 E30.46913
G1 X69.197 Y17.680 E30.72915
G1 X69.777 Y17.680 E30.73384
G1 X46.493 Y40.964 E31.00050
G1 X46.493 Y41.544 E31.00520
G1 X70.357 Y17.680 E31.27850
G1 X70.937 Y17.680 E31.28320
G1 X46.493 Y42.124 E31.56314
G1 X46.493 Y42.704 E31.56784
G1 X71.517 Y17.680 E31.85442
G1 X72.097 Y17.680 E31.85912
G1 X46.493 Y43.283 E32.15234
G1 X46.493 Y43.863 E32.15704
G1 X72.677 Y17.680 E32.45691
G1 X73.257 Y17.680 E32.46160
G1 X46.493 Y44.443 E32.76811
G1 X46.493 Y45.023 E32.77281
G1 X73.837 Y17.680 E33.08596
G1 X74.417 Y17.680 E33.09066
G1 X46.493 Y45.603 E33.41045
G1 X46.493 Y46.183 E33.41514
G1 X74.996 Y17.680 E33.74158
G1 X75.576 Y17.680 E33.74627
G1 X46.493 Y46.763 E34.07935
G1 X46.493 Y47.343 E34.08405
G1 X76.156 Y17.680 E34.42376
G1 X76.736 Y17.680 E34.42846
G1 X46.493 Y47.923 E34.77482
G1 X46.493 Y48.503 E34.77951
G1 X77.316 Y17.680 E35.13251
G1 X77.896 Y17.680 E35.13721
G1 X46.493 Y49.083 E35.49685
G1 X46.493 Y49.663 E35.50155
G1 X78.476 Y17.680 E35.86783
G1 X79.056 Y17.680 E35.87252
G1 X46.493 Y50.243 E36.24545
G1 X46.493 Y50.822 E36.25015
G1 X79.636 Y17.680 E36.62971
G1 X80.216 Y17.680 E36.63441
G1 X46.493 Y51.402 E37.02061
G1 X46.493 Y51.982 E37.02531
G1 X80.796 Y17.680 E37.41816
G1 X81.376 Y17.680 E37.42286
G1 X46.493 Y52.562 E37.82235
G1 X46.493 Y53.142 E37.82704
G1 X81.956 Y17.680 E38.23317
G1 X82.535 Y17.680 E38.23787
G1 X46.493 Y53.722 E38.65064
G1 X46.493 Y54.302 E38.65534
G1 X83.115 Y17.680 E39.07475
G1 X83.695 Y17.680 E39.07945
G1 X46.493 Y54.882 E39.50551
G1 X46.493 Y55.462 E39.51020
G1 X84.275 Y17.680 E39.94290
G1 X84.855 Y17.680 E39.94760
G1 X46.493 Y56.042 E40.38694
G1 X46.493 Y56.622 E40.39163
G1 X85.435 Y17.680 E40.83761
G1 X86.015 Y17.680 E40.84231
G1 X46.493 Y57.202 E41.29493
G1 X46.493 Y57.782 E41.29963
G1 X86.595 Y17.680 E41.75889
G1 X87.175 Y17.680 E41.76359
G1 X46.493 Y58.361 E42.22949
G1 X46.493 Y58.941 E42.23419
G1 X87.755 Y17.680 E42.70674
G1 X88.335 Y17.680 E42.71143
G1 X46.493 Y59.521 E43.19062
G1 X46.493 Y60.101 E43.19532
G1 X88.915 Y17.680 E43.68115
G1 X89.494 Y17.680 E43.68584
G1 X46.493 Y60.681 E44.17832
G1 X46.493 Y61.261 E44.18301
G1 X90.074 Y17.680 E44.68213
G1 X90.654 Y17.680 E44.68682
G1 X46.493 Y61.841 E45.19258
G1 X46.493 Y62.421 E45.19727
G1 X91.234 Y17.680 E45.70967
G1 X91.814 Y17.680 E45.71436
G1 X46.493 Y63.001 E46.23340
G1 X46.493 Y63.581 E46.23810
G1 X92.394 Y17.680 E46.76378
G1 X92.974 Y17.680 E46.76847
G1 X46.493 Y64.161 E47.30079
G1 X46.493 Y64.741 E47.30549
G1 X93.554 Y17.680 E47.84445
G1 X94.134 Y17.680 E47.84915
G1 X46.493 Y65.321 E48.39475
G1 X46.493 Y65.900 E48.39945
G1 X94.714 Y17.680 E48.95169
G1 X95.294 Y17.680 E48.95639
G1 X46.493 Y66.480 E49.51528
G1 X46.493 Y67.060 E49.51997
G1 X95.874 Y17.680 E50.08550
G1 X96.454 Y17.680 E50.09020
G1 X46.493 Y67.640 E50.66237
G1 X46.493 Y68.220 E50.66706
G1 X97.033 Y17.680 E51.24587
G1 X97.613 Y17.680 E51.25057
G1 X46.493 Y68.800 E51.83602
G1 X46.493 Y69.380 E51.84072
G1 X98.193 Y17.680 E52.43281
G1 X98.773 Y17.680 E52.43751
G1 X46.493 Y69.960 E53.03625
G1 X46.493 Y70.540 E53.04094
G1 X99.353 Y17.680 E53.64632
G1 X99.933 Y17.680 E53.65102
G1 X46.493 Y71.120 E54.26304
G1 X46.493 Y71.700 E54.26773
G1 X100.513 Y17.680 E54.88639
G1 X101.093 Y17.680 E54.89109
G1 X46.493 Y72.280 E55.51639
G1 X46.493 Y72.860 E55.52109
G1 X101.673 Y17.680 E56.15303
G1 X102.253 Y17.680 E56.15773
G1 X46.493 Y73.439 E56.79631
G1 X46.493 Y74.019 E56.80101
G1 X102.833 Y17.680 E57.44623
G1 X103.413 Y17.680 E57.45093
G1 X46.493 Y74.599 E58.10280
G1 X46.493 Y75.179 E58.10749
G1 X103.993 Y17.680 E58.76600
G1 X104.572 Y17.680 E58.77070
G1 X46.493 Y75.759 E59.43585
G1 X46.493 Y76.339 E59.44055
G1 X105.152 Y17.680 E60.11234
G1 X105.732 Y17.680 E60.11704
G1 X46.493 Y76.919 E60.79547
G1 X46.493 Y77.499 E60.80017
G1 X106.312 Y17.680 E61.48524
G1 X106.892 Y17.680 E61.48994
G1 X46.493 Y78.079 E62.18165
G1 X46.493 Y78.659 E62.18635
G1 X107.472 Y17.680 E62.88471
G1 X108.052 Y17.680 E62.88941
G1 X46.493 Y79.239 E63.59441
G1 X46.493 Y79.819 E63.59910
G1 X108.632 Y17.680 E64.31074
G1 X109.212 Y17.680 E64.31544
G1 X46.493 Y80.398 E65.03372
G1 X46.493 Y80.978 E65.03842
G1 X109.792 Y17.680 E65.76334
G1 X110.372 Y17.680 E65.76804
G1 X46.493 Y81.558 E66.49961
G1 X46.493 Y82.138 E66.50430
G1 X110.952 Y17.680 E67.24251
G1 X111.532 Y17.680 E67.24721
G1 X46.493 Y82.718 E67.99206
G1 X46.493 Y83.298 E67.99675
G1 X112.111 Y17.680 E68.74824
G1 X112.691 Y17.680 E68.75294
G1 X46.493 Y83.878 E69.51107
G1 X46.493 Y84.458 E69.51577
G1 X113.271 Y17.680 E70.28054
G1 X113.851 Y17.680 E70.28524
G1 X46.493 Y85.038 E71.05665
G1 X46.493 Y85.618 E71.06135
G1 X114.431 Y17.680 E71.83941
G1 X115.011 Y17.680 E71.84410
G1 X46.493 Y86.198 E72.62880
G1 X46.493 Y86.778 E72.63350
G1 X115.591 Y17.680 E73.42484
G1 X116.171 Y17.680 E73.42953
G1 X46.493 Y87.358 E74.22751
G1 X46.493 Y87.937 E74.23221
G1 X116.751 Y17.680 E75.03683
G1 X117.331 Y17.680 E75.04153
G1 X46.493 Y88.517 E75.85279
G1 X46.493 Y89.097 E75.85749
G1 X117.911 Y17.680 E76.67539
G1 X118.491 Y17.680 E76.68009
G1 X46.493 Y89.677 E77.50464
G1 X46.493 Y90.257 E77.50933
G1 X119.071 Y17.680 E78.34052
G1 X119.650 Y17.680 E78.34522
G1 X46.493 Y90.837 E79.18305
G1 X46.493 Y91.417 E79.18775
G1 X120.230 Y17.680 E80.03222
G1 X120.810 Y17.680 E80.03691
G1 X46.493 Y91.997 E80.88803
G1 X46.493 Y92.577 E80.89272
G1 X121.390 Y17.680 E81.75048
G1 X121.970 Y17.680 E81.75518
G1 X46.493 Y93.157 E82.61957
G1 X46.493 Y93.737 E82.62427
G1 X122.550 Y17.680 E83.49531
G1 X123.130 Y17.680 E83.50000
G1 X46.493 Y94.317 E84.37768
G1 X46.493 Y94.897 E84.38238
G1 X123.710 Y17.680 E85.26670
G1 X124.290 Y17.680 E85.27140
G1 X46.493 Y95.476 E86.16236
G1 X46.493 Y96.056 E86.16705
G1 X124.870 Y17.680 E87.06466
G1 X125.450 Y17.680 E87.06935
G1 X46.493 Y96.636 E87.97360
G1 X46.493 Y97.216 E87.97830
G1 X126.030 Y17.680 E88.88918
G1 X126.610 Y17.680 E88.89388
G1 X46.493 Y97.796 E89.81141
G1 X46.493 Y98.376 E89.81610
G1 X127.189 Y17.680 E90.74027
G1 X127.769 Y17.680 E90.74497
G1 X46.493 Y98.956 E91.67578
G1 X46.493 Y99.536 E91.68048
G1 X128.349 Y17.680 E92.61793
G1 X128.929 Y17.680 E92.62263
G1 X46.493 Y100.116 E93.56672
G1 X46.493 Y100.696 E93.57142
G1 X129.509 Y17.680 E94.52216
G1 X130.089 Y17.680 E94.52685
G1 X46.493 Y101.276 E95.48423
G1 X46.493 Y101.856 E95.48893
G1 X130.669 Y17.680 E96.45294
G1 X131.249 Y17.680 E96.45764
G1 X46.493 Y102.436 E97.42830
G1 X46.493 Y103.015 E97.43300
G1 X131.829 Y17.680 E98.41030
G1 X132.409 Y17.680 E98.41500
G1 X46.493 Y103.595 E99.39894
G1 X46.493 Y104.175 E99.40364
G1 X132.989 Y17.680 E100.39422
G1 X133.569 Y17.680 E100.39892
G1 X46.493 Y104.755 E101.39614
G1 X46.493 Y105.335 E101.40084
G1 X134.149 Y17.680 E102.40471
G1 X134.728 Y17.680 E102.40941
G1 X46.493 Y105.915 E103.41992
G1 X46.493 Y106.495 E103.42461
G1 X135.308 Y17.680 E104.44176
G1 X135.888 Y17.680 E104.44646
G1 X46.493 Y107.075 E105.47025
G1 X46.493 Y107.655 E105.47495
G1 X136.468 Y17.680 E106.50538
G1 X137.048 Y17.680 E106.51008
G1 X46.493 Y108.235 E107.54715
G1 X46.493 Y108.815 E107.55185
G1 X137.628 Y17.680 E108.59557
G1 X138.208 Y17.680 E108.60026
G1 X46.493 Y109.395 E109.65062
G1 X46.493 Y109.975 E109.65532
G1 X138.788 Y17.680 E110.71232
G1 X139.368 Y17.680 E110.71702
G1 X46.493 Y110.554 E111.78066
G1 X46.493 Y111.134 E111.78535
G1 X139.948 Y17.680 E112.85564
G1 X140.528 Y17.680 E112.86033
G1 X46.493 Y111.714 E113.93726
G1 X46.493 Y112.294 E113.94196
G1 X141.108 Y17.680 E115.02552
G1 X141.688 Y17.680 E115.03022
G1 X46.493 Y112.874 E116.12043
G1 X46.493 Y113.454 E116.12512
G1 X142.267 Y17.680 E117.22197
G1 X142.847 Y17.680 E117.22667
G1 X46.493 Y114.034 E118.33016
G1 X46.493 Y114.614 E118.33486
G1 X143.427 Y17.680 E119.44499
G1 X144.007 Y17.680 E119.44968
G1 X46.493 Y115.194 E120.56646
G1 X46.493 Y115.774 E120.57116
G1 X144.587 Y17.680 E121.69457
G1 X145.167 Y17.680 E121.69927
G1 X46.493 Y116.354 E122.82932
G1 X46.493 Y116.934 E122.83402
G1 X145.747 Y17.680 E123.97072
G1 X146.327 Y17.680 E123.97542
G1 X46.493 Y117.514 E125.11876
G1 X46.493 Y118.093 E125.12345
G1 X146.907 Y17.680 E126.27343
G1 X147.487 Y17.680 E126.27813
G1 X46.493 Y118.673 E127.43475
G1 X46.493 Y119.253 E127.43945
G1 X148.067 Y17.680 E128.60271
G1 X148.647 Y17.680 E128.60741
G1 X46.493 Y119.833 E129.77732
G1 X46.493 Y120.413 E129.78201
G1 X149.227 Y17.680 E130.95856
G1 X149.806 Y17.680 E130.96326
G1 X46.626 Y120.860 E132.14492
G1 X46.910 Y121.156 E132.14824
G1 X150.386 Y17.680 E133.33330
G1 X150.966 Y17.680 E133.33800
G1 X47.194 Y121.452 E134.52644
G1 X47.478 Y121.748 E134.52976
G1 X151.546 Y17.680 E135.72159
G1 X152.126 Y17.680 E135.72629
G1 X47.762 Y122.043 E136.92151
G1 X48.046 Y122.339 E136.92483
G1 X152.706 Y17.680 E138.12343
G1 X153.286 Y17.680 E138.12813
G1 X48.330 Y122.635 E139.33013
G1 X48.614 Y122.931 E139.33345
G1 X153.507 Y18.038 E140.53473
G1 X153.507 Y18.618 E140.53942
G1 X48.898 Y123.227 E141.73745
G1 X49.183 Y123.523 E141.74077
G1 X153.507 Y19.198 E142.93554
G1 X153.507 Y19.778 E142.94024
G1 X49.467 Y123.819 E144.13176
G1 X49.751 Y124.114 E144.13508
G1 X153.507 Y20.358 E145.32335
G1 X153.507 Y20.938 E145.32804
G1 X50.035 Y124.410 E146.51305
G1 X50.319 Y124.706 E146.51638
