; generated by Slic3r 1.3.0-dev on 2018-01-19 at 10:17:04

; external perimeters extrusion width = 0.42mm (5.35mm^3/s)
; perimeters extrusion width = 0.42mm (8.02mm^3/s)
; infill extrusion width = 0.42mm (8.02mm^3/s)
; solid infill extrusion width = 0.42mm (8.02mm^3/s)
; top infill extrusion width = 0.42mm (6.68mm^3/s)

M107
M190 S100 ; set bed temperature and wait for it to be reached
M104 S210 ; set temperature
G28 ; home all axes
G1 Z5 F5000 ; lift nozzle

; Filament gcode

M109 S210 ; set temperature and wait for it to be reached
G21 ; set units to millimeters
G90 ; use absolute coordinates
M82 ; use absolute distances for extrusion
G92 E0
G1 Z5.200 F4500.000
G1 E-1.00000 F2400.00000
G92 E0
G1 X38.890 Y13.031 F4500.000
G1 E1.00000 F2400.00000
G1 F2700
G1 X40.021 Y11.304 E1.06149
G1 X41.719 Y10.130 E1.12298
G1 X43.871 Y9.680 E1.18848
G1 X156.129 Y9.680 E4.53226
G1 X158.155 Y10.076 E4.59375
G1 X159.882 Y11.207 E4.65524
G1 X161.056 Y12.905 E4.71673
G1 X161.506 Y15.057 E4.78223
G1 X161.506 Y121.750 E7.96024
G1 X161.110 Y123.776 E8.02173
G1 X160.537 Y124.829 E8.05745
G1 X116.389 Y188.022 E10.35362
G1 X114.903 Y189.456 E10.41511
G1 X111.981 Y190.320 E10.50589
G1 X88.019 Y190.320 E11.21962
G1 X85.993 Y189.924 E11.28111
G1 X83.611 Y188.022 E11.37189
G1 X39.463 Y124.829 E13.66806
G1 X38.628 Y122.942 E13.72955
G1 X38.494 Y121.750 E13.76527
G1 X38.494 Y15.057 E16.94328
G1 X38.879 Y13.090 E17.00299
G1 E16.00299 F2400.00000
G92 E0
G1 X44.081 Y15.267 F4500.000
G1 E1.00000 F2400.00000
G1 F1800
G1 X155.919 Y15.267 E4.33127
G1 X155.919 Y121.665 E7.50051
G1 X111.771 Y167.647 E9.39924
G1 X111.771 Y184.733 E9.90819
G1 X88.229 Y184.733 E10.60940
G1 X88.229 Y167.647 E11.11835
G1 X44.081 Y121.665 E13.01708
G1 X44.081 Y15.327 E16.18453
G1 X44.445 Y15.434 F4500.000
G1 X44.458 Y15.644 F4500.000
G1 F2700
G1 X155.542 Y15.644 E19.49334
G1 X155.542 Y121.514 E22.64683
G1 X111.394 Y167.495 E24.54556
G1 X111.394 Y184.356 E25.04779
G1 X88.606 Y184.356 E25.72654
G1 X88.606 Y167.495 E26.22877
G1 X44.458 Y121.514 E28.12750
G1 X44.458 Y15.704 E31.27921
G1 X44.835 Y16.021 F4500.000
G1 F2700
G1 X155.165 Y16.021 E34.56555
G1 X155.165 Y121.362 E37.70329
G1 X111.017 Y167.343 E39.60202
G1 X111.017 Y183.979 E40.09754
G1 X88.983 Y183.979 E40.75383
G1 X88.983 Y167.343 E41.24935
G1 X44.835 Y121.362 E43.14807
G1 X44.835 Y16.081 E46.28403
G1 X45.212 Y16.398 F4500.000
G1 F2700
G1 X154.788 Y16.398 E49.54791
G1 X154.788 Y121.210 E52.66990
G1 X110.639 Y167.191 E54.56862
G1 X110.639 Y183.602 E55.05743
G1 X89.361 Y183.602 E55.69126
G1 X89.361 Y167.191 E56.18006
G1 X45.212 Y121.210 E58.07879
G1 X45.212 Y16.458 E61.19899
G1 X45.589 Y16.775 F4500.000
G1 F2700
G1 X154.411 Y16.775 E64.44041
G1 X154.411 Y121.058 E67.54665
G1 X110.262 Y167.040 E69.44537
G1 X110.262 Y183.225 E69.92747
G1 X89.738 Y183.225 E70.53883
G1 X89.738 Y167.040 E71.02092
G1 X45.589 Y121.058 E72.91965
G1 X45.589 Y16.835 E76.02410
G1 X45.966 Y17.152 F4500.000
G1 F2700
G1 X154.034 Y17.152 E79.24305
G1 X154.034 Y120.907 E82.33354
G1 X109.885 Y166.888 E84.23227
G1 X109.885 Y182.848 E84.70765
G1 X90.115 Y182.848 E85.29655
G1 X90.115 Y166.888 E85.77193
G1 X45.966 Y120.907 E87.67066
G1 X45.966 Y17.212 E90.75936
G1 X46.304 Y17.569 F4500.000
G1 F2700
G1 X46.384 Y17.489 E90.76273
G1 X46.918 Y17.489 E90.77867
G1 X46.303 Y18.104 E90.80460
G1 X46.303 Y18.638 E90.82054
G1 X47.452 Y17.489 E90.86900
G1 X47.986 Y17.489 E90.88495
G1 X46.303 Y19.172 E90.95595
G1 X46.303 Y19.706 E90.97189
G1 X48.520 Y17.489 E91.06545
G1 X49.055 Y17.489 E91.08139
G1 X46.303 Y20.241 E91.19748
G1 X46.303 Y20.775 E91.21342
G1 X49.589 Y17.489 E91.35206
G1 X50.123 Y17.489 E91.36800
G1 X46.303 Y21.309 E91.52918
G1 X46.303 Y21.843 E91.54512
G1 X50.657 Y17.489 E91.72884
G1 X51.191 Y17.489 E91.74478
G1 X46.303 Y22.377 E91.95105
G1 X46.303 Y22.912 E91.96699
G1 X51.726 Y17.489 E92.19580
G1 X52.260 Y17.489 E92.21174
G1 X46.303 Y23.446 E92.46309
G1 X46.303 Y23.980 E92.47903
G1 X52.794 Y17.489 E92.75292
G1 X53.328 Y17.489 E92.76886
G1 X46.303 Y24.514 E93.06530
G1 X46.303 Y25.049 E93.08124
G1 X53.863 Y17.489 E93.40021
G1 X54.397 Y17.489 E93.41615
G1 X46.303 Y25.583 E93.75767
G1 X46.303 Y26.117 E93.77361
G1 X54.931 Y17.489 E94.13768
G1 X55.465 Y17.489 E94.15362
G1 X46.303 Y26.651 E94.54022
G1 X46.303 Y27.185 E94.55616
G1 X55.999 Y17.489 E94.96531
G1 X56.534 Y17.489 E94.98125
G1 X46.303 Y27.720 E95.41294
G1 X46.303 Y28.254 E95.42888
G1 X57.068 Y17.489 E95.88312
G1 X57.602 Y17.489 E95.89906
G1 X46.303 Y28.788 E96.37583
G1 X46.303 Y29.322 E96.39177
G1 X58.136 Y17.489 E96.89109
G1 X58.670 Y17.489 E96.90703
G1 X46.303 Y29.856 E97.42889
G1 X46.303 Y30.391 E97.44483
G1 X59.205 Y17.489 E97.98924
G1 X59.739 Y17.489 E98.00518
G1 X46.303 Y30.925 E98.57213
G1 X46.303 Y31.459 E98.58807
G1 X60.273 Y17.489 E99.17755
G1 X60.807 Y17.489 E99.19349
G1 X46.303 Y31.993 E99.80553
G1 X46.303 Y32.527 E99.82147
G1 X61.341 Y17.489 E100.45604
G1 X61.876 Y17.489 E100.47198
G1 X46.303 Y33.062 E101.12910
G1 X46.303 Y33.596 E101.14504
G1 X62.410 Y17.489 E101.82470
G1 X62.944 Y17.489 E101.84064
G1 X46.303 Y34.130 E102.54284
G1 X46.303 Y34.664 E102.55878
G1 X63.478 Y17.489 E103.28352
G1 X64.012 Y17.489 E103.29946
G1 X46.303 Y35.198 E104.04675
G1 X46.303 Y35.733 E104.06269
G1 X64.547 Y17.489 E104.83252
G1 X65.081 Y17.489 E104.84846
G1 X46.303 Y36.267 E105.64083
G1 X46.303 Y36.801 E105.65677
G1 X65.615 Y17.489 E106.47169
G1 X66.149 Y17.489 E106.48763
G1 X46.303 Y37.335 E107.32509
G1 X46.303 Y37.869 E107.34103
G1 X66.683 Y17.489 E108.20103
G1 X67.218 Y17.489 E108.21697
G1 X46.303 Y38.404 E109.09951
G1 X46.303 Y38.938 E109.11545
G1 X67.752 Y17.489 E110.02053
G1 X68.286 Y17.489 E110.03647
G1 X46.303 Y39.472 E110.96410
G1 X46.303 Y40.006 E110.98004
G1 X68.820 Y17.489 E111.93021
G1 X69.354 Y17.489 E111.94615
G1 X46.303 Y40.540 E112.91887
G1 X46.303 Y41.075 E112.93481
G1 X69.889 Y17.489 E113.93006
G1 X70.423 Y17.489 E113.94600
G1 X46.303 Y41.609 E114.96380
G1 X46.303 Y42.143 E114.97974
G1 X70.957 Y17.489 E116.02008
G1 X71.491 Y17.489 E116.03602
G1 X46.303 Y42.677 E117.09890
G1 X46.303 Y43.211 E117.11484
G1 X72.025 Y17.489 E118.20027
G1 X72.560 Y17.489 E118.21621
G1 X46.303 Y43.746 E119.32418
G1 X46.303 Y44.280 E119.34012
G1 X73.094 Y17.489 E120.47063
G1 X73.628 Y17.489 E120.48657
G1 X46.303 Y44.814 E121.63962
G1 X46.303 Y45.348 E121.65556
G1 X74.162 Y17.489 E122.83116
G1 X74.697 Y17.489 E122.84710
G1 X46.303 Y45.882 E124.04524
G1 X46.303 Y46.417 E124.06118
G1 X75.231 Y17.489 E125.28186
G1 X75.765 Y17.489 E125.29780
G1 X46.303 Y46.951 E126.54102
G1 X46.303 Y47.485 E126.55696
G1 X76.299 Y17.489 E127.82273
G1 X76.833 Y17.489 E127.83867
G1 X46.303 Y48.019 E129.12698
G1 X46.303 Y48.554 E129.14292
G1 X77.368 Y17.489 E130.45377
G1 X77.902 Y17.489 E130.46971
G1 X46.303 Y49.088 E131.80310
G1 X46.303 Y49.622 E131.81904
G1 X78.436 Y17.489 E133.17498
G1 X78.970 Y17.489 E133.19092
G1 X46.303 Y50.156 E134.56940
G1 X46.303 Y50.690 E134.58534
G1 X79.504 Y17.489 E135.98636
G1 X80.039 Y17.489 E136.00230
G1 X46.303 Y51.225 E137.42587
G1 X46.303 Y51.759 E137.44181
G1 X80.573 Y17.489 E138.88791
G1 X81.107 Y17.489 E138.90385
G1 X46.303 Y52.293 E140.37250
G1 X46.303 Y52.827 E140.38844
G1 X81.641 Y17.489 E141.87964
G1 X82.175 Y17.489 E141.89558
G1 X46.303 Y53.361 E143.40931
G1 X46.303 Y53.896 E143.42525
G1 X82.710 Y17.489 E144.96153
G1 X83.244 Y17.489 E144.97747
G1 X46.303 Y54.430 E146.53629
G1 X46.303 Y54.964 E146.55223
G1 X83.778 Y17.489 E148.13359
G1 X84.312 Y17.489 E148.14953
G1 X46.303 Y55.498 E149.75344
G1 X46.303 Y56.032 E149.76938
G1 X84.846 Y17.489 E151.39582
G1 X85.381 Y17.489 E151.41176
G1 X46.303 Y56.567 E153.06076
G1 X46.303 Y57.101 E153.07670
G1 X85.915 Y17.489 E154.74823
G1 X86.449 Y17.489 E154.76417
G1 X46.303 Y57.635 E156.45824
G1 X46.303 Y58.169 E156.47418
G1 X86.983 Y17.489 E158.19080
G1 X87.517 Y17.489 E158.20674
G1 X46.303 Y58.703 E159.94590
G1 X46.303 Y59.238 E159.96184
G1 X88.052 Y17.489 E161.72355
G1 X88.586 Y17.489 E161.73949
G1 X46.303 Y59.772 E163.52373
G1 X46.303 Y60.306 E163.53967
G1 X89.120 Y17.489 E165.34646
G1 X89.654 Y17.489 E165.36240
G1 X46.303 Y60.840 E167.19173
G1 X46.303 Y61.374 E167.20767
G1 X90.188 Y17.489 E169.05954
G1 X90.723 Y17.489 E169.07548
G1 X46.303 Y61.909 E170.94990
G1 X46.303 Y62.443 E170.96584
G1 X91.257 Y17.489 E172.86280
G1 X91.791 Y17.489 E172.87874
G1 X46.303 Y62.977 E174.79824
G1 X46.303 Y63.511 E174.81418
G1 X92.325 Y17.489 E176.75622
G1 X92.859 Y17.489 E176.77216
G1 X46.303 Y64.045 E178.73675
G1 X46.303 Y64.580 E178.75269
G1 X93.394 Y17.489 E180.73982
G1 X93.928 Y17.489 E180.75576
G1 X46.303 Y65.114 E182.76543
G1 X46.303 Y65.648 E182.78137
G1 X94.462 Y17.489 E184.81359
G1 X94.996 Y17.489 E184.82953
G1 X46.303 Y66.182 E186.88428
G1 X46.303 Y66.716 E186.90022
G1 X95.531 Y17.489 E188.97752
G1 X96.065 Y17.489 E188.99346
G1 X46.303 Y67.251 E191.09330
G1 X46.303 Y67.785 E191.10924
G1 X96.599 Y17.489 E193.23163
G1 X97.133 Y17.489 E193.24757
G1 X46.303 Y68.319 E195.39249
G1 X46.303 Y68.853 E195.40843
G1 X97.667 Y17.489 E197.57590
G1 X98.202 Y17.489 E197.59184
G1 X46.303 Y69.388 E199.78186
G1 X46.303 Y69.922 E199.79780
G1 X98.736 Y17.489 E202.01035
G1 X99.270 Y17.489 E202.02629
G1 X46.303 Y70.456 E204.26139
G1 X46.303 Y70.990 E204.27733
G1 X99.804 Y17.489 E206.53497
G1 X100.338 Y17.489 E206.55091
G1 X46.303 Y71.524 E208.83109
G1 X46.303 Y72.059 E208.84703
G1 X100.873 Y17.489 E211.14976
G1 X101.407 Y17.489 E211.16570
G1 X46.303 Y72.593 E213.49096
G1 X46.303 Y73.127 E213.50690
G1 X101.941 Y17.489 E215.85471
G1 X102.475 Y17.489 E215.87065
G1 X46.303 Y73.661 E218.24101
G1 X46.303 Y74.195 E218.25695
G1 X103.009 Y17.489 E220.64984
G1 X103.544 Y17.489 E220.66578
G1 X46.303 Y74.730 E223.08122
G1 X46.303 Y75.264 E223.09716
G1 X104.078 Y17.489 E225.53514
G1 X104.612 Y17.489 E225.55108
G1 X46.303 Y75.798 E228.01160
G1 X46.303 Y76.332 E228.02754
G1 X105.146 Y17.489 E230.51061
G1 X105.680 Y17.489 E230.52655
G1 X46.303 Y76.866 E233.03216
G1 X46.303 Y77.401 E233.04810
G1 X106.215 Y17.489 E235.57625
G1 X106.749 Y17.489 E235.59219
G1 X46.303 Y77.935 E238.14288
G1 X46.303 Y78.469 E238.15882
G1 X107.283 Y17.489 E240.73206
G1 X107.817 Y17.489 E240.74800
G1 X46.303 Y79.003 E243.34377
G1 X46.303 Y79.537 E243.35971
G1 X108.351 Y17.489 E245.97804
G1 X108.886 Y17.489 E245.99398
G1 X46.303 Y80.072 E248.63484
G1 X46.303 Y80.606 E248.65078
G1 X109.420 Y17.489 E251.31419
G1 X109.954 Y17.489 E251.33013
G1 X46.303 Y81.140 E254.01607
G1 X46.303 Y81.674 E254.03201
G1 X110.488 Y17.489 E256.74051
G1 X111.022 Y17.489 E256.75645
G1 X46.303 Y82.208 E259.48748
G1 X46.303 Y82.743 E259.50342
G1 X111.557 Y17.489 E262.25700
G1 X112.091 Y17.489 E262.27294
G1 X46.303 Y83.277 E265.04906
G1 X46.303 Y83.811 E265.06500
G1 X112.625 Y17.489 E267.86366
G1 X113.159 Y17.489 E267.87960
G1 X46.303 Y84.345 E270.70080
G1 X46.303 Y84.879 E270.71674
G1 X113.693 Y17.489 E273.56049
G1 X114.228 Y17.489 E273.57643
G1 X46.303 Y85.414 E276.44272
G1 X46.303 Y85.948 E276.45866
G1 X114.762 Y17.489 E279.34749
G1 X115.296 Y17.489 E279.36343
G1 X46.303 Y86.482 E282.27480
G1 X46.303 Y87.016 E282.29074
G1 X115.830 Y17.489 E285.22466
G1 X116.365 Y17.489 E285.24060
G1 X46.303 Y87.550 E288.19706
G1 X46.303 Y88.085 E288.21300
G1 X116.899 Y17.489 E291.19200
G1 X117.433 Y17.489 E291.20794
G1 X46.303 Y88.619 E294.20949
G1 X46.303 Y89.153 E294.22543
G1 X117.967 Y17.489 E297.24952
G1 X118.501 Y17.489 E297.26546
G1 X46.303 Y89.687 E300.31209
G1 X46.303 Y90.222 E300.32803
G1 X119.036 Y17.489 E303.39720
G1 X119.570 Y17.489 E303.41314
G1 X46.303 Y90.756 E306.50485
G1 X46.303 Y91.290 E306.52079
G1 X120.104 Y17.489 E309.63505
G1 X120.638 Y17.489 E309.65099
G1 X46.303 Y91.824 E312.78779
G1 X46.303 Y92.358 E312.80373
G1 X121.172 Y17.489 E315.96308
G1 X121.707 Y17.489 E315.97902
G1 X46.303 Y92.893 E319.16090
G1 X46.303 Y93.427 E319.17684
G1 X122.241 Y17.489 E322.38127
G1 X122.775 Y17.489 E322.39721
G1 X46.303 Y93.961 E325.62418
G1 X46.303 Y94.495 E325.64012
G1 X123.309 Y17.489 E328.88963
G1 X123.843 Y17.489 E328.90557
G1 X46.303 Y95.029 E332.17763
G1 X46.303 Y95.564 E332.19357
G1 X124.378 Y17.489 E335.48817
G1 X124.912 Y17.489 E335.50411
G1 X46.303 Y96.098 E338.82125
G1 X46.303 Y96.632 E338.83719
G1 X125.446 Y17.489 E342.17687
G1 X125.980 Y17.489 E342.19281
G1 X46.303 Y97.166 E345.55504
G1 X46.303 Y97.700 E345.57098
G1 X126.514 Y17.489 E348.95575
G1 X127.049 Y17.489 E348.97169
G1 X46.303 Y98.235 E352.37900
G1 X46.303 Y98.769 E352.39494
G1 X127.583 Y17.489 E355.82479
G1 X128.117 Y17.489 E355.84073
G1 X46.303 Y99.303 E359.29313
G1 X46.303 Y99.837 E359.30907
G1 X128.651 Y17.489 E362.78401
G1 X129.185 Y17.489 E362.79995
G1 X46.303 Y100.371 E366.29743
G1 X46.303 Y100.906 E366.31337
G1 X129.720 Y17.489 E369.83339
G1 X130.254 Y17.489 E369.84933
G1 X46.303 Y101.440 E373.39190
G1 X46.303 Y101.974 E373.40784
G1 X130.788 Y17.489 E376.97295
G1 X131.322 Y17.489 E376.98889
G1 X46.303 Y102.508 E380.57654
G1 X46.303 Y103.042 E380.59248
G1 X131.856 Y17.489 E384.20268
G1 X132.391 Y17.489 E384.21862
G1 X46.303 Y103.577 E387.85135
G1 X46.303 Y104.111 E387.86729
G1 X132.925 Y17.489 E391.52257
G1 X133.459 Y17.489 E391.53851
G1 X46.303 Y104.645 E395.21633
G1 X46.303 Y105.179 E395.23227
G1 X133.993 Y17.489 E398.93264
G1 X134.527 Y17.489 E398.94858
G1 X46.303 Y105.713 E402.67149
G1 X46.303 Y106.248 E402.68743
G1 X135.062 Y17.489 E406.43288
G1 X135.596 Y17.489 E406.44882
G1 X46.303 Y106.782 E410.21681
G1 X46.303 Y107.316 E410.23275
G1 X136.130 Y17.489 E414.02328
G1 X136.664 Y17.489 E414.03922
G1 X46.303 Y107.850 E417.85230
G1 X46.303 Y108.384 E417.86824
G1 X137.199 Y17.489 E421.70386
G1 X137.733 Y17.489 E421.71980
G1 X46.303 Y108.919 E425.57797
G1 X46.303 Y109.453 E425.59391
G1 X138.267 Y17.489 E429.47461
G1 X138.801 Y17.489 E429.49055
G1 X46.303 Y109.987 E433.39380
G1 X46.303 Y110.521 E433.40974
G1 X139.335 Y17.489 E437.33553
G1 X139.870 Y17.489 E437.35147
G1 X46.303 Y111.055 E441.29980
G1 X46.303 Y111.590 E441.31574
G1 X140.404 Y17.489 E445.28662
G1 X140.938 Y17.489 E445.30256
G1 X46.303 Y112.124 E449.29598
G1 X46.303 Y112.658 E449.31192
G1 X141.472 Y17.489 E453.32788
G1 X142.006 Y17.489 E453.34382
G1 X46.303 Y113.192 E457.38232
G1 X46.303 Y113.727 E457.39826
G1 X142.541 Y17.489 E461.45931
G1 X143.075 Y17.489 E461.47525
G1 X46.303 Y114.261 E465.55884
G1 X46.303 Y114.795 E465.57478
G1 X143.609 Y17.489 E469.68091
G1 X144.143 Y17.489 E469.69685
G1 X46.303 Y115.329 E473.82552
G1 X46.303 Y115.863 E473.84146
G1 X144.677 Y17.489 E477.99268
G1 X145.212 Y17.489 E478.00862
G1 X46.303 Y116.398 E482.18238
G1 X46.303 Y116.932 E482.19832
G1 X145.746 Y17.489 E486.39462
G1 X146.280 Y17.489 E486.41056
G1 X46.303 Y117.466 E490.62940
G1 X46.303 Y118.000 E490.64534
G1 X146.814 Y17.489 E494.88673
G1 X147.348 Y17.489 E494.90267
G1 X46.303 Y118.534 E499.16660
G1 X46.303 Y119.069 E499.18254
G1 X147.883 Y17.489 E503.46901
G1 X148.417 Y17.489 E503.48495
G1 X46.303 Y119.603 E507.79396
G1 X46.303 Y120.137 E507.80990
G1 X148.951 Y17.489 E512.14146
G1 X149.485 Y17.489 E512.15740
G1 X46.303 Y120.671 E516.51150
G1 X46.303 Y120.795 E516.51520
G1 X46.504 Y121.004 E516.52386
G1 X150.019 Y17.489 E520.89202
G1 X150.554 Y17.489 E520.90796
G1 X46.766 Y121.277 E525.28762
G1 X47.028 Y121.549 E525.29889
G1 X151.088 Y17.489 E529.69005
G1 X151.622 Y17.489 E529.70599
G1 X47.289 Y121.822 E534.10866
G1 X47.551 Y122.095 E534.11993
G1 X152.156 Y17.489 E538.53409
G1 X152.690 Y17.489 E538.55003
G1 X47.813 Y122.367 E542.97569
G1 X48.075 Y122.640 E542.98697
G1 X153.225 Y17.489 E547.42413
G1 X153.697 Y17.489 E547.43821
G1 X153.697 Y17.552 E547.44007
G1 X48.336 Y122.912 E551.88611
G1 X48.598 Y123.185 E551.89738
G1 X153.697 Y18.086 E556.33237
G1 X153.697 Y18.620 E556.34831
G1 X48.860 Y123.457 E560.77226
G1 X49.121 Y123.730 E560.78353
G1 X153.697 Y19.154 E565.19644
G1 X153.697 Y19.689 E565.21238
G1 X49.383 Y124.002 E569.61425
G1 X49.645 Y124.275 E569.62552
G1 X153.697 Y20.223 E574.01634
G1 X153.697 Y20.757 E574.03228
G1 X49.906 Y124.547 E578.41207
G1 X50.168 Y124.820 E578.42334
G1 X153.697 Y21.291 E582.79208
G1 X153.697 Y21.825 E582.80802
G1 X50.430 Y125.092 E587.16572
G1 X50.691 Y125.365 E587.17699
