; generated by Slic3r 1.3.0-dev on 2018-01-19 at 18:23:02

; external perimeters extrusion width = 0.42mm (5.35mm^3/s)
; perimeters extrusion width = 0.42mm (8.02mm^3/s)
; infill extrusion width = 0.42mm (8.02mm^3/s)
; solid infill extrusion width = 0.42mm (8.02mm^3/s)
; top infill extrusion width = 0.42mm (6.68mm^3/s)

M107
M190 S100 ; set bed temperature and wait for it to be reached
M104 S210 ; set temperature
G28 ; home all axes
G1 Z5 F5000 ; lift nozzle

; Filament gcode

M109 S210 ; set temperature and wait for it to be reached
G21 ; set units to millimeters
G90 ; use absolute coordinates
M82 ; use absolute distances for extrusion
G92 E0
G1 Z5.200 F4500.000
G1 E-1.00000 F2400.00000
G92 E0
G1 X38.890 Y13.031 F4500.000
G1 E1.00000 F2400.00000
G1 F2700
G1 X40.020 Y11.304 E1.06149
G1 X41.718 Y10.130 E1.12298
G1 X43.871 Y9.680 E1.18848
G1 X156.130 Y9.680 E4.53228
G1 X158.156 Y10.077 E4.59377
G1 X159.883 Y11.207 E4.65527
G1 X161.057 Y12.905 E4.71676
G1 X161.507 Y15.057 E4.78225
G1 X161.507 Y121.751 E7.96028
G1 X161.110 Y123.777 E8.02177
G1 X160.537 Y124.830 E8.05750
G1 X116.387 Y188.021 E10.35364
G1 X114.902 Y189.455 E10.41513
G1 X111.979 Y190.319 E10.50590
G1 X88.018 Y190.319 E11.21964
G1 X85.992 Y189.922 E11.28113
G1 X83.610 Y188.021 E11.37191
G1 X39.463 Y124.830 E13.66800
G1 X38.627 Y122.942 E13.72949
G1 X38.494 Y121.751 E13.76521
G1 X38.494 Y15.057 E16.94323
G1 X38.878 Y13.090 E17.00294
G1 E16.00294 F2400.00000
G92 E0
G1 X44.081 Y15.267 F4500.000
G1 E1.00000 F2400.00000
G1 F1800
G1 X155.920 Y15.267 E4.33130
G1 X155.920 Y121.666 E7.50055
G1 X111.769 Y167.645 E9.39927
G1 X111.769 Y184.731 E9.90821
G1 X88.228 Y184.731 E10.60944
G1 X88.228 Y167.645 E11.11837
G1 X44.081 Y121.666 E13.01703
G1 X44.081 Y15.327 E16.18449
G1 X44.444 Y15.434 F4500.000
G1 X44.458 Y15.645 F4500.000
G1 F2700
G1 X155.543 Y15.645 E19.49332
G1 X155.543 Y121.514 E22.64683
G1 X111.392 Y167.494 E24.54555
G1 X111.392 Y184.354 E25.04778
G1 X88.605 Y184.354 E25.72654
G1 X88.605 Y167.494 E26.22876
G1 X44.458 Y121.514 E28.12741
G1 X44.458 Y15.705 E31.27913
G1 X44.835 Y16.022 F4500.000
G1 F2700
G1 X155.165 Y16.022 E34.56550
G1 X155.165 Y121.363 E37.70325
G1 X111.015 Y167.342 E39.60197
G1 X111.015 Y183.977 E40.09749
G1 X88.982 Y183.977 E40.75378
G1 X88.982 Y167.342 E41.24929
G1 X44.835 Y121.363 E43.14795
G1 X44.835 Y16.082 E46.28391
G1 X45.212 Y16.399 F4500.000
G1 F2700
G1 X154.788 Y16.399 E49.54782
G1 X154.788 Y121.211 E52.66982
G1 X110.638 Y167.190 E54.56854
G1 X110.638 Y183.600 E55.05734
G1 X89.359 Y183.600 E55.69117
G1 X89.359 Y167.190 E56.17997
G1 X45.212 Y121.211 E58.07863
G1 X45.212 Y16.459 E61.19884
G1 X45.589 Y16.776 F4500.000
G1 F2700
G1 X154.411 Y16.776 E64.44028
G1 X154.411 Y121.059 E67.54653
G1 X110.261 Y167.038 E69.44525
G1 X110.261 Y183.223 E69.92734
G1 X89.736 Y183.223 E70.53871
G1 X89.736 Y167.038 E71.02079
G1 X45.589 Y121.059 E72.91945
G1 X45.589 Y16.836 E76.02391
G1 X45.966 Y17.153 F4500.000
G1 F2700
G1 X154.034 Y17.153 E79.24289
G1 X154.034 Y120.908 E82.33338
G1 X109.884 Y166.887 E84.23211
G1 X109.884 Y182.846 E84.70748
G1 X90.113 Y182.846 E85.29639
G1 X90.113 Y166.887 E85.77176
G1 X45.966 Y120.908 E87.67042
G1 X45.966 Y17.213 E90.75913
G1 X46.304 Y17.570 F4500.000
G1 F2700
G1 X46.384 Y17.490 E90.76250
G1 X46.918 Y17.490 E90.77844
G1 X46.303 Y18.105 E90.80439
G1 X46.303 Y18.639 E90.82033
G1 X47.452 Y17.490 E90.86881
G1 X47.986 Y17.490 E90.88475
G1 X46.303 Y19.173 E90.95578
G1 X46.303 Y19.707 E90.97172
G1 X48.521 Y17.490 E91.06529
G1 X49.055 Y17.490 E91.08122
G1 X46.303 Y20.242 E91.19734
G1 X46.303 Y20.776 E91.21327
G1 X49.589 Y17.490 E91.35193
G1 X50.123 Y17.490 E91.36787
G1 X46.303 Y21.310 E91.52906
G1 X46.303 Y21.844 E91.54500
G1 X50.657 Y17.490 E91.72874
G1 X51.192 Y17.490 E91.74468
G1 X46.303 Y22.378 E91.95095
G1 X46.303 Y22.912 E91.96689
G1 X51.726 Y17.490 E92.19571
G1 X52.260 Y17.490 E92.21165
G1 X46.303 Y23.447 E92.46301
G1 X46.303 Y23.981 E92.47895
G1 X52.794 Y17.490 E92.75286
G1 X53.328 Y17.490 E92.76880
G1 X46.303 Y24.515 E93.06524
G1 X46.303 Y25.049 E93.08118
G1 X53.863 Y17.490 E93.40017
G1 X54.397 Y17.490 E93.41611
G1 X46.303 Y25.583 E93.75764
G1 X46.303 Y26.118 E93.77358
G1 X54.931 Y17.490 E94.13765
G1 X55.465 Y17.490 E94.15359
G1 X46.303 Y26.652 E94.54020
G1 X46.303 Y27.186 E94.55614
G1 X55.999 Y17.490 E94.96530
G1 X56.534 Y17.490 E94.98124
G1 X46.303 Y27.720 E95.41293
G1 X46.303 Y28.254 E95.42887
G1 X57.068 Y17.490 E95.88311
G1 X57.602 Y17.490 E95.89905
G1 X46.303 Y28.789 E96.37583
G1 X46.303 Y29.323 E96.39177
G1 X58.136 Y17.490 E96.89109
G1 X58.670 Y17.490 E96.90703
G1 X46.303 Y29.857 E97.42890
G1 X46.303 Y30.391 E97.44484
G1 X59.205 Y17.490 E97.98924
G1 X59.739 Y17.490 E98.00518
G1 X46.303 Y30.925 E98.57213
G1 X46.303 Y31.460 E98.58807
G1 X60.273 Y17.490 E99.17756
G1 X60.807 Y17.490 E99.19350
G1 X46.303 Y31.994 E99.80553
G1 X46.303 Y32.528 E99.82147
G1 X61.341 Y17.490 E100.45604
G1 X61.876 Y17.490 E100.47198
G1 X46.303 Y33.062 E101.12910
G1 X46.303 Y33.596 E101.14504
G1 X62.410 Y17.490 E101.82469
G1 X62.944 Y17.490 E101.84063
G1 X46.303 Y34.131 E102.54283
G1 X46.303 Y34.665 E102.55877
G1 X63.478 Y17.490 E103.28351
G1 X64.012 Y17.490 E103.29945
G1 X46.303 Y35.199 E104.04674
G1 X46.303 Y35.733 E104.06268
G1 X64.547 Y17.490 E104.83250
G1 X65.081 Y17.490 E104.84844
G1 X46.303 Y36.267 E105.64081
G1 X46.303 Y36.802 E105.65675
G1 X65.615 Y17.490 E106.47165
G1 X66.149 Y17.490 E106.48759
G1 X46.303 Y37.336 E107.32504
G1 X46.303 Y37.870 E107.34098
G1 X66.683 Y17.490 E108.20098
G1 X67.218 Y17.490 E108.21691
G1 X46.303 Y38.404 E109.09945
G1 X46.303 Y38.938 E109.11539
G1 X67.752 Y17.490 E110.02046
G1 X68.286 Y17.490 E110.03640
G1 X46.303 Y39.473 E110.96402
G1 X46.303 Y40.007 E110.97996
G1 X68.820 Y17.490 E111.93012
G1 X69.354 Y17.490 E111.94606
G1 X46.303 Y40.541 E112.91876
G1 X46.303 Y41.075 E112.93470
G1 X69.889 Y17.490 E113.92994
G1 X70.423 Y17.490 E113.94588
G1 X46.303 Y41.609 E114.96367
G1 X46.303 Y42.144 E114.97961
G1 X70.957 Y17.490 E116.01994
G1 X71.491 Y17.490 E116.03587
G1 X46.303 Y42.678 E117.09874
G1 X46.303 Y43.212 E117.11468
G1 X72.025 Y17.490 E118.20009
G1 X72.559 Y17.490 E118.21603
G1 X46.303 Y43.746 E119.32399
G1 X46.303 Y44.280 E119.33993
G1 X73.094 Y17.490 E120.47042
G1 X73.628 Y17.490 E120.48636
G1 X46.303 Y44.815 E121.63940
G1 X46.303 Y45.349 E121.65534
G1 X74.162 Y17.490 E122.83091
G1 X74.696 Y17.490 E122.84685
G1 X46.303 Y45.883 E124.04497
G1 X46.303 Y46.417 E124.06091
G1 X75.230 Y17.490 E125.28157
G1 X75.765 Y17.490 E125.29751
G1 X46.303 Y46.951 E126.54072
G1 X46.303 Y47.486 E126.55666
G1 X76.299 Y17.490 E127.82240
G1 X76.833 Y17.490 E127.83834
G1 X46.303 Y48.020 E129.12663
G1 X46.303 Y48.554 E129.14257
G1 X77.367 Y17.490 E130.45340
G1 X77.901 Y17.490 E130.46934
G1 X46.303 Y49.088 E131.80271
G1 X46.303 Y49.622 E131.81865
G1 X78.436 Y17.490 E133.17456
G1 X78.970 Y17.490 E133.19050
G1 X46.303 Y50.157 E134.56896
G1 X46.303 Y50.691 E134.58490
G1 X79.504 Y17.490 E135.98589
G1 X80.038 Y17.490 E136.00183
G1 X46.303 Y51.225 E137.42537
G1 X46.303 Y51.759 E137.44131
G1 X80.572 Y17.490 E138.88739
G1 X81.107 Y17.490 E138.90333
G1 X46.303 Y52.293 E140.37195
G1 X46.303 Y52.827 E140.38789
G1 X81.641 Y17.490 E141.87906
G1 X82.175 Y17.490 E141.89500
G1 X46.303 Y53.362 E143.40870
G1 X46.303 Y53.896 E143.42464
G1 X82.709 Y17.490 E144.96089
G1 X83.243 Y17.490 E144.97683
G1 X46.303 Y54.430 E146.53562
G1 X46.303 Y54.964 E146.55156
G1 X83.778 Y17.490 E148.13289
G1 X84.312 Y17.490 E148.14883
G1 X46.303 Y55.498 E149.75270
G1 X46.303 Y56.033 E149.76864
G1 X84.846 Y17.490 E151.39506
G1 X85.380 Y17.490 E151.41100
G1 X46.303 Y56.567 E153.05995
G1 X46.303 Y57.101 E153.07589
G1 X85.914 Y17.490 E154.74739
G1 X86.449 Y17.490 E154.76333
G1 X46.303 Y57.635 E156.45737
G1 X46.303 Y58.169 E156.47331
G1 X86.983 Y17.490 E158.18990
G1 X87.517 Y17.490 E158.20584
G1 X46.303 Y58.704 E159.94496
G1 X46.303 Y59.238 E159.96090
G1 X88.051 Y17.490 E161.72257
G1 X88.585 Y17.490 E161.73851
G1 X46.303 Y59.772 E163.52271
G1 X46.303 Y60.306 E163.53865
G1 X89.120 Y17.490 E165.34540
G1 X89.654 Y17.490 E165.36134
G1 X46.303 Y60.840 E167.19064
G1 X46.303 Y61.375 E167.20658
G1 X90.188 Y17.490 E169.05841
G1 X90.722 Y17.490 E169.07435
G1 X46.303 Y61.909 E170.94872
G1 X46.303 Y62.443 E170.96466
G1 X91.256 Y17.490 E172.86158
G1 X91.791 Y17.490 E172.87752
G1 X46.303 Y62.977 E174.79698
G1 X46.303 Y63.511 E174.81292
G1 X92.325 Y17.490 E176.75492
G1 X92.859 Y17.490 E176.77086
G1 X46.303 Y64.046 E178.73540
G1 X46.303 Y64.580 E178.75134
G1 X93.393 Y17.490 E180.73843
G1 X93.927 Y17.490 E180.75437
G1 X46.303 Y65.114 E182.76400
G1 X46.303 Y65.648 E182.77994
G1 X94.462 Y17.490 E184.81210
G1 X94.996 Y17.490 E184.82804
G1 X46.303 Y66.182 E186.88275
G1 X46.303 Y66.717 E186.89869
G1 X95.530 Y17.490 E188.97595
G1 X96.064 Y17.490 E188.99189
G1 X46.303 Y67.251 E191.09168
G1 X46.303 Y67.785 E191.10762
G1 X96.598 Y17.490 E193.22996
G1 X97.133 Y17.490 E193.24590
G1 X46.303 Y68.319 E195.39077
G1 X46.303 Y68.853 E195.40671
G1 X97.667 Y17.490 E197.57413
G1 X98.201 Y17.490 E197.59007
G1 X46.303 Y69.388 E199.78003
G1 X46.303 Y69.922 E199.79597
G1 X98.735 Y17.490 E202.00848
G1 X99.269 Y17.490 E202.02442
G1 X46.303 Y70.456 E204.25946
G1 X46.303 Y70.990 E204.27540
G1 X99.804 Y17.490 E206.53299
G1 X100.338 Y17.490 E206.54893
G1 X46.303 Y71.524 E208.82906
G1 X46.303 Y72.059 E208.84500
G1 X100.872 Y17.490 E211.14767
G1 X101.406 Y17.490 E211.16361
G1 X46.303 Y72.593 E213.48882
G1 X46.303 Y73.127 E213.50476
G1 X101.940 Y17.490 E215.85252
G1 X102.475 Y17.490 E215.86846
G1 X46.303 Y73.661 E218.23875
G1 X46.303 Y74.195 E218.25469
G1 X103.009 Y17.490 E220.64753
G1 X103.543 Y17.490 E220.66347
G1 X46.303 Y74.730 E223.07885
G1 X46.303 Y75.264 E223.09479
G1 X104.077 Y17.490 E225.53271
G1 X104.611 Y17.490 E225.54865
G1 X46.303 Y75.798 E228.00912
G1 X46.303 Y76.332 E228.02505
G1 X105.145 Y17.490 E230.50806
G1 X105.680 Y17.490 E230.52400
G1 X46.303 Y76.866 E233.02955
G1 X46.303 Y77.401 E233.04549
G1 X106.214 Y17.490 E235.57358
G1 X106.748 Y17.490 E235.58952
G1 X46.303 Y77.935 E238.14015
G1 X46.303 Y78.469 E238.15609
G1 X107.282 Y17.490 E240.72926
G1 X107.816 Y17.490 E240.74520
G1 X46.303 Y79.003 E243.34092
G1 X46.303 Y79.537 E243.35686
G1 X108.351 Y17.490 E245.97511
G1 X108.885 Y17.490 E245.99105
G1 X46.303 Y80.072 E248.63185
G1 X46.303 Y80.606 E248.64779
G1 X109.419 Y17.490 E251.31113
G1 X109.953 Y17.490 E251.32707
G1 X46.303 Y81.140 E254.01295
G1 X46.303 Y81.674 E254.02889
G1 X110.487 Y17.490 E256.73732
G1 X111.022 Y17.490 E256.75326
G1 X46.303 Y82.208 E259.48422
G1 X46.303 Y82.742 E259.50016
G1 X111.556 Y17.490 E262.25367
G1 X112.090 Y17.490 E262.26961
G1 X46.303 Y83.277 E265.04566
G1 X46.303 Y83.811 E265.06160
G1 X112.624 Y17.490 E267.86019
G1 X113.158 Y17.490 E267.87613
G1 X46.303 Y84.345 E270.69727
G1 X46.303 Y84.879 E270.71321
G1 X113.693 Y17.490 E273.55688
G1 X114.227 Y17.490 E273.57282
G1 X46.303 Y85.413 E276.43904
G1 X46.303 Y85.948 E276.45498
G1 X114.761 Y17.490 E279.34374
G1 X115.295 Y17.490 E279.35968
G1 X46.303 Y86.482 E282.27098
G1 X46.303 Y87.016 E282.28692
G1 X115.829 Y17.490 E285.22076
G1 X116.364 Y17.490 E285.23670
G1 X46.303 Y87.550 E288.19309
G1 X46.303 Y88.084 E288.20903
G1 X116.898 Y17.490 E291.18795
G1 X117.432 Y17.490 E291.20389
G1 X46.303 Y88.619 E294.20536
G1 X46.303 Y89.153 E294.22130
G1 X117.966 Y17.490 E297.24531
G1 X118.500 Y17.490 E297.26125
G1 X46.303 Y89.687 E300.30780
G1 X46.303 Y90.221 E300.32374
G1 X119.035 Y17.490 E303.39284
G1 X119.569 Y17.490 E303.40878
G1 X46.303 Y90.755 E306.50041
G1 X46.303 Y91.290 E306.51635
G1 X120.103 Y17.490 E309.63053
G1 X120.637 Y17.490 E309.64647
G1 X46.303 Y91.824 E312.78319
G1 X46.303 Y92.358 E312.79913
G1 X121.171 Y17.490 E315.95839
G1 X121.706 Y17.490 E315.97433
G1 X46.303 Y92.892 E319.15614
G1 X46.303 Y93.426 E319.17208
G1 X122.240 Y17.490 E322.37642
G1 X122.774 Y17.490 E322.39236
G1 X46.303 Y93.961 E325.61925
G1 X46.303 Y94.495 E325.63519
G1 X123.308 Y17.490 E328.88462
G1 X123.842 Y17.490 E328.90056
G1 X46.303 Y95.029 E332.17253
G1 X46.303 Y95.563 E332.18847
G1 X124.377 Y17.490 E335.48298
G1 X124.911 Y17.490 E335.49892
G1 X46.303 Y96.097 E338.81597
G1 X46.303 Y96.632 E338.83191
G1 X125.445 Y17.490 E342.17151
G1 X125.979 Y17.490 E342.18745
G1 X46.303 Y97.166 E345.54959
G1 X46.303 Y97.700 E345.56553
G1 X126.513 Y17.490 E348.95021
G1 X127.048 Y17.490 E348.96615
G1 X46.303 Y98.234 E352.37337
G1 X46.303 Y98.768 E352.38931
G1 X127.582 Y17.490 E355.81908
G1 X128.116 Y17.490 E355.83501
G1 X46.303 Y99.303 E359.28732
G1 X46.303 Y99.837 E359.30326
G1 X128.650 Y17.490 E362.77811
G1 X129.184 Y17.490 E362.79405
G1 X46.303 Y100.371 E366.29144
G1 X46.303 Y100.905 E366.30738
G1 X129.719 Y17.490 E369.82731
G1 X130.253 Y17.490 E369.84325
G1 X46.303 Y101.439 E373.38572
G1 X46.303 Y101.974 E373.40166
G1 X130.787 Y17.490 E376.96668
G1 X131.321 Y17.490 E376.98262
G1 X46.303 Y102.508 E380.57017
G1 X46.303 Y103.042 E380.58611
G1 X131.855 Y17.490 E384.19621
G1 X132.390 Y17.490 E384.21215
G1 X46.303 Y103.576 E387.84479
G1 X46.303 Y104.110 E387.86073
G1 X132.924 Y17.490 E391.51591
G1 X133.458 Y17.490 E391.53185
G1 X46.303 Y104.645 E395.20958
G1 X46.303 Y105.179 E395.22552
G1 X133.992 Y17.490 E398.92578
G1 X134.526 Y17.490 E398.94172
G1 X46.303 Y105.713 E402.66453
G1 X46.303 Y106.247 E402.68047
G1 X135.061 Y17.490 E406.42582
G1 X135.595 Y17.490 E406.44176
G1 X46.303 Y106.781 E410.20965
G1 X46.303 Y107.316 E410.22559
G1 X136.129 Y17.490 E414.01603
G1 X136.663 Y17.490 E414.03197
G1 X46.303 Y107.850 E417.84494
G1 X46.303 Y108.384 E417.86088
G1 X137.197 Y17.490 E421.69640
G1 X137.731 Y17.490 E421.71234
G1 X46.303 Y108.918 E425.57040
G1 X46.303 Y109.452 E425.58634
G1 X138.266 Y17.490 E429.46694
G1 X138.800 Y17.490 E429.48288
G1 X46.303 Y109.987 E433.38602
G1 X46.303 Y110.521 E433.40196
G1 X139.334 Y17.490 E437.32765
G1 X139.868 Y17.490 E437.34359
G1 X46.303 Y111.055 E441.29181
G1 X46.303 Y111.589 E441.30775
G1 X140.402 Y17.490 E445.27852
G1 X140.937 Y17.490 E445.29446
G1 X46.303 Y112.123 E449.28777
G1 X46.303 Y112.657 E449.30371
G1 X141.471 Y17.490 E453.31957
G1 X142.005 Y17.490 E453.33551
G1 X46.303 Y113.192 E457.37390
G1 X46.303 Y113.726 E457.38984
G1 X142.539 Y17.490 E461.45078
G1 X143.073 Y17.490 E461.46671
G1 X46.303 Y114.260 E465.55019
G1 X46.303 Y114.794 E465.56613
G1 X143.608 Y17.490 E469.67215
G1 X144.142 Y17.490 E469.68809
G1 X46.303 Y115.328 E473.81665
G1 X46.303 Y115.863 E473.83259
G1 X144.676 Y17.490 E477.98370
G1 X145.210 Y17.490 E477.99964
G1 X46.303 Y116.397 E482.17328
G1 X46.303 Y116.931 E482.18922
G1 X145.744 Y17.490 E486.38541
G1 X146.279 Y17.490 E486.40135
G1 X46.303 Y117.465 E490.62008
G1 X46.303 Y117.999 E490.63602
G1 X146.813 Y17.490 E494.87729
G1 X147.347 Y17.490 E494.89323
G1 X46.303 Y118.534 E499.15704
G1 X46.303 Y119.068 E499.17298
G1 X147.881 Y17.490 E503.45934
G1 X148.415 Y17.490 E503.47528
G1 X46.303 Y119.602 E507.78417
G1 X46.303 Y120.136 E507.80011
G1 X148.950 Y17.490 E512.13155
G1 X149.484 Y17.490 E512.14749
G1 X46.303 Y120.670 E516.50147
G1 X46.303 Y120.796 E516.50521
G1 X46.503 Y121.004 E516.51384
G1 X150.018 Y17.490 E520.88191
G1 X150.552 Y17.490 E520.89785
G1 X46.765 Y121.277 E525.27743
G1 X47.027 Y121.549 E525.28870
G1 X151.086 Y17.490 E529.67977
G1 X151.621 Y17.490 E529.69571
G1 X47.288 Y121.822 E534.09828
G1 X47.550 Y122.095 E534.10956
G1 X152.155 Y17.490 E538.52363
G1 X152.689 Y17.490 E538.53957
G1 X47.812 Y122.367 E542.96514
G1 X48.073 Y122.640 E542.97642
G1 X153.223 Y17.490 E547.41349
G1 X153.697 Y17.490 E547.42763
G1 X153.697 Y17.550 E547.42943
G1 X48.335 Y122.912 E551.87546
G1 X48.597 Y123.185 E551.88674
G1 X153.697 Y18.084 E556.32172
G1 X153.697 Y18.619 E556.33766
G1 X48.859 Y123.457 E560.76161
G1 X49.120 Y123.730 E560.77289
G1 X153.697 Y19.153 E565.18579
G1 X153.697 Y19.687 E565.20173
G1 X49.382 Y124.002 E569.60359
G1 X49.644 Y124.275 E569.61487
G1 X153.697 Y20.221 E574.00569
G1 X153.697 Y20.755 E574.02163
G1 X49.905 Y124.547 E578.40141
G1 X50.167 Y124.820 E578.41268
G1 X153.697 Y21.290 E582.78142
G1 X153.697 Y21.824 E582.79736
G1 X50.429 Y125.092 E587.15506
G1 X50.690 Y125.365 E587.16633
